/* XPM */
static char *_[] = {
/* columns rows colors chars-per-pixel */
"80 80 3 1 ",
"  c None",
". c black",
"X c white",
/* pixels */
"                                                                                ",
"                                                                                ",
"                                                                                ",
"                                                                                ",
"                                                                                ",
"                    .......                                                     ",
"                    .......                                                     ",
"            ........XXXXXXX........                                             ",
"            ........XXXXXXX........                                             ",
"            ........XXXXXXX........                                             ",
"          ..XXXXXXXXXXXXXXXXXXXX.............                                   ",
"          ..XXXXXXXXXXXXXXXXXXXX.............                                   ",
"            ..................XXXXXXXXXXXXXXX..                                 ",
"            ..................XXXXXXXXXXXXXXX..                                 ",
"            ..................XXXXXXXXXXXXXXX..                                 ",
"                 ........XXXXXXXXXXXXXXXXXXXXXX...                              ",
"                 ........XXXXXXXXXXXXXXXXXXXXXX...                              ",
"               .....XXXXXXXXXXXXXXXXXXXXXXXXXXXXXX..                            ",
"               .....XXXXXXXXXXXXXXXXXXXXXXXXXXXXXX..                            ",
"               .....XXXXXXXXXXXXXXXXXXXXXXXXXXXXXX..                            ",
"            .....XXXXXXXXXXXXXXXXXXXXXXXXXXXXXXXXXXX........       .....        ",
"            .....XXXXXXXXXXXXXXXXXXXXXXXXXXXXXXXXXXX........       .....        ",
"            ...XXXXXXXXXXXXXXXXXXXXXXXXXXXXXXXXXXX.....XX...     ..XXX..        ",
"            ...XXXXXXXXXXXXXXXXXXXXXXXXXXXXXXXXXXX.....XX...     ..XXX..        ",
"            ...XXXXXXXXXXXXXXXXXXXXXXXXXXXXXXXXXXX.....XX...     ..XXX..        ",
"            ...XXXXXXXXXXXX...XXXXXXXXXXXXXXXXXXXX..XXXXX...  ...XXXXX..        ",
"            ...XXXXXXXXXXXX...XXXXXXXXXXXXXXXXXXXX..XXXXX...  ...XXXXX..        ",
"            ...XXXXXXXXXXXXXXX..XXXXXXXXXXXXXXX...XXXXXXX.....XXXXXXXX..        ",
"            ...XXXXXXXXXXXXXXX..XXXXXXXXXXXXXXX...XXXXXXX.....XXXXXXXX..        ",
"            ...XXXXXXXXXXXXXXX..XXXXXXXXXXXXXXX...XXXXXXX.....XXXXXXXX..        ",
"            ...XXXXXXXXXXXXXXXXX...XXXXXXXXXX..XXXXXXXXXXXXXXXXXXXXXXX..        ",
"            ...XXXXXXXXXXXXXXXXX...XXXXXXXXXX..XXXXXXXXXXXXXXXXXXXXXXX..        ",
"            ...XXXXXXXXXXXXXXXXX...XXXXXXX...XXXXXXXXXXXXXXXXXXXXXXXXX..        ",
"            ...XXXXXXXXXXXXXXXXX...XXXXXXX...XXXXXXXXXXXXXXXXXXXXXXXXX..        ",
"            ...XXXXXXXXXXXXXXXXX...XXXXXXX...XXXXXXXXXXXXXXXXXXXXXXXXX..        ",
"               ..XXXXXXXXXXXXXXX...XXXXXXX...XXXXXXXXXXXXXXXXXXXXXXXXX..        ",
"               ..XXXXXXXXXXXXXXX...XXXXXXX...XXXXXXXXXXXXXXXXXXXXXXXXX..        ",
"               ..XXXXXXXXXXXXXXX...XXXXXXX...XXXXXXXXXX..XXXXXXXX..XXXXX...     ",
"               ..XXXXXXXXXXXXXXX...XXXXXXX...XXXXXXXXXX..XXXXXXXX..XXXXX...     ",
"               ..XXXXXXXXXXXXXXX...XXXXXXX...XXXXXXXXXX..XXXXXXXX..XXXXX...     ",
"               ..XXXXXXXXXXXXXXX...XXXXXXX...XXXXXXXXXX..XXXXXXXX..XXXXX...     ",
"               ..XXXXXXXXXXXXXXX...XXXXXXX...XXXXXXXXXX..XXXXXXXX..XXXXX...     ",
"               ..XXXXXXXXXXXXX..XXXXXXXX..........XXXXX..XXXXXXXX..XXXXX........",
"               ..XXXXXXXXXXXXX..XXXXXXXX..........XXXXX..XXXXXXXX..XXXXX........",
"               ..XXXXXXXXXXXXX..XXXXXXXX..........XXXXX..XXXXXXXX..XXXXX........",
"               ..XXXXXXXXXXXXX..XXXXXXXXXXXXXXXXXXXXXXXXXXXXXXXXXXXXXXXX...     ",
"               ..XXXXXXXXXXXXX..XXXXXXXXXXXXXXXXXXXXXXXXXXXXXXXXXXXXXXXX...     ",
"               ..XXXXXXXXXXXXX..XXXXXXXXXXXXXXXXXXXXXXXXXXXXXXXXX..XXXXX...     ",
"               ..XXXXXXXXXXXXX..XXXXXXXXXXXXXXXXXXXXXXXXXXXXXXXXX..XXXXX...     ",
"               ..XXXXXXXXXXXXX..XXXXXXXXXXXXXXXXXXXXXXXXXXXXXXXXX..XXXXX...     ",
"                 ...XXXXXXX...XXXXXXX...XXXXXXXXXXXXXXXXXXXXXXXXXXXXXXXX...     ",
"                 ...XXXXXXX...XXXXXXX...XXXXXXXXXXXXXXXXXXXXXXXXXXXXXXXX...     ",
"                    ..XXXXX...XXXXXXX...XXXXX..XXXXXXXXXXXXXXX.....XXX..        ",
"                    ..XXXXX...XXXXXXX...XXXXX..XXXXXXXXXXXXXXX.....XXX..        ",
"                    ..XXXXX...XXXXXXX...XXXXX..XXXXXXXXXXXXXXX.....XXX..        ",
"                    ..XXXXXXXX..XXX..XXXXXXXXXX..................  ...          ",
"                    ..XXXXXXXX..XXX..XXXXXXXXXX..................  ...          ",
"                      ...XXXXX..XXX..XXXXXXXXXX...XXXXXXXXXXXX...               ",
"                      ...XXXXX..XXX..XXXXXXXXXX...XXXXXXXXXXXX...               ",
"                      ...XXXXX..XXX..XXXXXXXXXX...XXXXXXXXXXXX...               ",
"                      ...XXXXX.....XXXXXXXXXX..XXXXXXXXXX.....                  ",
"                      ...XXXXX.....XXXXXXXXXX..XXXXXXXXXX.....                  ",
"                         ..XXXXX...XXXXX..........XXXXX..                       ",
"                         ..XXXXX...XXXXX..........XXXXX..                       ",
"                         ..XXXXX...XXXXX..........XXXXX..                       ",
"                         .....XX..........        .....                         ",
"                         .....XX..........        .....                         ",
"                           ........                                             ",
"                           ........                                             ",
"                           ........                                             ",
"                                                                                ",
"                                                                                ",
"                                                                                ",
"                                                                                ",
"                                                                                ",
"                                                                                ",
"                                                                                ",
"                                                                                ",
"                                                                                ",
"                                                                                "
};
