/* XPM */
static char *_[] = {
/* columns rows colors chars-per-pixel */
"80 80 3 1 ",
"  c None",
". c black",
"X c white",
/* pixels */
"                                                                                ",
"                                                                                ",
"                                                                                ",
"                                                                                ",
"                                                                                ",
"                                                                                ",
"                                                                                ",
"                         .................                                      ",
"                         .................                                      ",
"                         .................                                      ",
"     ............     ...XXXXXXXXXXXXXXX.......                                 ",
"     ............     ...XXXXXXXXXXXXXXX.......                                 ",
"  ...XXXXXXXXXXXX...     .......XXXXXXXX..XXXXX...                              ",
"  ...XXXXXXXXXXXX...     .......XXXXXXXX..XXXXX...                              ",
"  ...XXXXXXXXXXXX...     .......XXXXXXXX..XXXXX...                              ",
"     .......XXXXXXXX..        ..XXXXX...XXXXX..                                 ",
"     .......XXXXXXXX..        ..XXXXX...XXXXX..                                 ",
"            ...XXXXXXX........XXXXX..XXXXX.....                                 ",
"            ...XXXXXXX........XXXXX..XXXXX.....                                 ",
"            ...XXXXXXX........XXXXX..XXXXX.....                                 ",
"            ...XXXXXXXXXXXX........XXXXX..XXXXX...                              ",
"            ...XXXXXXXXXXXX........XXXXX..XXXXX...                              ",
"            ...XXXXXXXXXXXXXXXXXXXXXXXXXXXXXXXXXXX..                            ",
"            ...XXXXXXXXXXXXXXXXXXXXXXXXXXXXXXXXXXX..                            ",
"            ...XXXXXXXXXXXXXXXXXXXXXXXXXXXXXXXXXXX..                            ",
"            ...XXXXXXXXXXXXXXXXXXXXXXXXXXXXXXXXXXXXX...  .....                  ",
"            ...XXXXXXXXXXXXXXXXXXXXXXXXXXXXXXXXXXXXX...  .....                  ",
"            ...XXXXXXXXXXXXXXXXXXXXXXXXXXXXXXXXXXXXX.....XXX..          .....   ",
"            ...XXXXXXXXXXXXXXXXXXXXXXXXXXXXXXXXXXXXX.....XXX..          .....   ",
"            ...XXXXXXXXXXXXXXXXXXXXXXXXXXXXXXXXXXXXX.....XXX..          .....   ",
"            ...XXXXXXXXXXXXXXXXXXXXXXXXXXXXXXXXXXXXX...XXXXX.....  .....XXX..   ",
"            ...XXXXXXXXXXXXXXXXXXXXXXXXXXXXXXXXXXXXX...XXXXX.....  .....XXX..   ",
"               ..XXXXXXXXXXXXXXXXXXXXXXXXXXXXXXXXX..XXXXXXXXXX.....XXXXXXXX..   ",
"               ..XXXXXXXXXXXXXXXXXXXXXXXXXXXXXXXXX..XXXXXXXXXX.....XXXXXXXX..   ",
"               ..XXXXXXXXXXXXXXXXXXXXXXXXXXXXXXXXX..XXXXXXXXXX.....XXXXXXXX..   ",
"                 ...XXXXXXXXXXXXXXXXXXXXXXXXX.....XXXXXXXXXXXXXXX..XXXXXXXX..   ",
"                 ...XXXXXXXXXXXXXXXXXXXXXXXXX.....XXXXXXXXXXXXXXX..XXXXXXXX..   ",
"                    ..XXXXXXXXXXXXXXXXXXXX...XXXXXXXXXXXXXXXXXXXX..XXXXX...     ",
"                    ..XXXXXXXXXXXXXXXXXXXX...XXXXXXXXXXXXXXXXXXXX..XXXXX...     ",
"                    ..XXXXXXXXXXXXXXXXXXXX...XXXXXXXXXXXXXXXXXXXX..XXXXX...     ",
"                      .....XXXXXXXXXXXXXXX...XXXXXXXXXXXXXXXXXXXXXXXXXXX...     ",
"                      .....XXXXXXXXXXXXXXX...XXXXXXXXXXXXXXXXXXXXXXXXXXX...     ",
"                           ...XXXXXXXXXXXX...XXXXXXXXXXXXXXXXXXXXXXXXXXX...     ",
"                           ...XXXXXXXXXXXX...XXXXXXXXXXXXXXXXXXXXXXXXXXX...     ",
"                           ...XXXXXXXXXXXX...XXXXXXXXXXXXXXXXXXXXXXXXXXX...     ",
"                              ..XXXXXXXXXXXXXXXXXXXXXXXXXXXXXXXXXXXXXXXX...     ",
"                              ..XXXXXXXXXXXXXXXXXXXXXXXXXXXXXXXXXXXXXXXX...     ",
"                              ..XXXXXXXXXX........XXXXXXX...XXXXXXX...XX...  ...",
"                              ..XXXXXXXXXX........XXXXXXX...XXXXXXX...XX...  ...",
"                              ..XXXXXXXXXX........XXXXXXX...XXXXXXX...XX...  ...",
"                                ...XXXXXXXXXXXXXXX..XXXXX...XXXXXXX...XX.....   ",
"                                ...XXXXXXXXXXXXXXX..XXXXX...XXXXXXX...XX.....   ",
"                                ...XXXXX..XXXXXXXXXXXXXXX...XXXXXXX...XX...     ",
"                                ...XXXXX..XXXXXXXXXXXXXXX...XXXXXXX...XX...     ",
"                                ...XXXXX..XXXXXXXXXXXXXXX...XXXXXXX...XX...     ",
"                                   ..XXXXX...XXXXXXXXXXXXXXXXXXXXXXXXXXX...     ",
"                                   ..XXXXX...XXXXXXXXXXXXXXXXXXXXXXXXXXX...     ",
"                                     ...XXXXX.....XXXXXXXXXXXXXXX..XXX.....     ",
"                                     ...XXXXX.....XXXXXXXXXXXXXXX..XXX.....     ",
"                                     ...XXXXX.....XXXXXXXXXXXXXXX..XXX.....     ",
"                                        ..XXXXXXXX..........XXXXXXX.....        ",
"                                        ..XXXXXXXX..........XXXXXXX.....        ",
"                                          ...XXXXXXXXXX............XXX..        ",
"                                          ...XXXXXXXXXX............XXX..        ",
"                                          ...XXXXXXXXXX............XXX..        ",
"                                             ..XXXXXXXX..     ...XXXXXXX...     ",
"                                             ..XXXXXXXX..     ...XXXXXXX...     ",
"                                             ..XXXXXXXX..        ..XXXXX...     ",
"                                             ..XXXXXXXX..        ..XXXXX...     ",
"                                             ..XXXXXXXX..        ..XXXXX...     ",
"                                               ...XXXXX..        ..XXXXX...     ",
"                                               ...XXXXX..        ..XXXXX...     ",
"                                                  .......          .....        ",
"                                                  .......          .....        ",
"                                                  .......          .....        ",
"                                                                                ",
"                                                                                ",
"                                                                                ",
"                                                                                ",
"                                                                                "
};
