/* XPM */
static char *_[] = {
/* columns rows colors chars-per-pixel */
"80 80 4 1 ",
"  c None",
". c black",
"X c #CB0000",
"o c white",
/* pixels */
"                                                                                ",
"                                                                                ",
"                                                                                ",
"                                                                                ",
"                                                                                ",
"                                                                                ",
"                                                                                ",
"                              ..                  ..                            ",
"                              ..                  ..                            ",
"                              ..                  ..                            ",
"                           ...oo...            ...oo...                         ",
"                           ...oo...            ...oo...                         ",
"                           ...ooooo..        ..ooooo...                         ",
"                           ...ooooo..        ..ooooo...                         ",
"                           ...ooooo..        ..ooooo...                         ",
"                         ..oooooooo..        ..oooooooo..                       ",
"                         ..oooooooo..        ..oooooooo..                       ",
"                         ..oooooooooo...  ...oooooooooo..                       ",
"                         ..oooooooooo...  ...oooooooooo..                       ",
"                         ..oooooooooo...  ...oooooooooo..                       ",
"                      ...oooooooooooo........oooooooooooo...                    ",
"                      ...oooooooooooo........oooooooooooo...                    ",
"                      ...ooooo..oooooooooooooooooo..ooooo...                    ",
"                      ...ooooo..oooooooooooooooooo..ooooo...                    ",
"                      ...ooooo..oooooooooooooooooo..ooooo...                    ",
"                      ...ooooooo...oooooooooooo...ooooooo...                    ",
"                      ...ooooooo...oooooooooooo...ooooooo...                    ",
"                      ...oooooooooo..oooooooo..oooooooooo...                    ",
"                      ...oooooooooo..oooooooo..oooooooooo...                    ",
"                      ...oooooooooo..oooooooo..oooooooooo...                    ",
"                    .......ooooo...ooooo..ooooo...ooooo.......                  ",
"                    .......ooooo...ooooo..ooooo...ooooo.......                  ",
"                 ...  ...oo...oooooooooooooooooooooo...oo...  ...               ",
"                 ...  ...oo...oooooooooooooooooooooo...oo...  ...               ",
"                 ...  ...oo...oooooooooooooooooooooo...oo...  ...               ",
"                      ...oooooooooo..ooo..ooo..oooooooooo...                    ",
"                      ...oooooooooo..ooo..ooo..oooooooooo...                    ",
"                         ..oooooooooo...oo...oooooooooo..                       ",
"                         ..oooooooooo...oo...oooooooooo..                       ",
"                         ..oooooooooo...oo...oooooooooo..                       ",
"                           ...oooooooooooooooooooooo...                         ",
"                           ...oooooooooooooooooooooo...                         ",
"                              .......oooooooo.......                            ",
"                              .......oooooooo.......                            ",
"                              .......oooooooo.......                            ",
"                                   ..oooooooo..                                 ",
"                                   ..oooooooo..                                 ",
"                                ...oooooooooooo...                              ",
"                                ...oooooooooooo...                              ",
"                                ...oooooooooooo...                              ",
"                              ..oooooooooooooooooo..                            ",
"                              ..oooooooooooooooooo..                            ",
"                           ...oooooooooooooooooooooo...                         ",
"                           ...oooooooooooooooooooooo...                         ",
"                           ...oooooooooooooooooooooo...                         ",
"                    .....  ...oooooooooooooooooooooo...  .....                  ",
"                    .....  ...oooooooooooooooooooooo...  .....                  ",
"                 ...ooooo.....oooooooooo..oooooooooo.....ooooo...               ",
"                 ...ooooo.....oooooooooo..oooooooooo.....ooooo...               ",
"                 ...ooooo.....oooooooooo..oooooooooo.....ooooo...               ",
"               ..oooooooooo.....oooooooo..oooooooo.....oooooooooo..             ",
"               ..oooooooooo.....oooooooo..oooooooo.....oooooooooo..             ",
"               ..oooooXXXXXXXX..oooooooo..oooooooo..ooooooooooooo..             ",
"               ..oooooXXXXXXXX..oooooooo..oooooooo..ooooooooooooo..             ",
"               ..oooooXXXXXXXX..oooooooo..oooooooo..ooooooooooooo..             ",
"               .......XXXXXXXX..oooooooo..oooooooo..oooooooo.................   ",
"               .......XXXXXXXX..oooooooo..oooooooo..oooooooo.................   ",
"            .....ooooooooXXooo..ooooo........ooooo..ooooooooooooo..oooooooooo...",
"            .....ooooooooXXooo..ooooo........ooooo..ooooooooooooo..oooooooooo...",
"            .....ooooooooXXooo..ooooo........ooooo..ooooooooooooo..oooooooooo...",
"            ............................  ...................................   ",
"            ............................  ...................................   ",
"                                                                                ",
"                                                                                ",
"                                                                                ",
"                                                                                ",
"                                                                                ",
"                                                                                ",
"                                                                                ",
"                                                                                "
};
