/* XPM */
static char *_[] = {
/* columns rows colors chars-per-pixel */
"80 80 5 1 ",
"  c None",
". c black",
"X c #CB0000",
"o c #E50000",
"O c white",
/* pixels */
"                                                                                ",
"                                                                                ",
"                                                                                ",
"                                                                                ",
"                                                                                ",
"                                                                                ",
"                                                                                ",
"                              ..                  ..                            ",
"                              ..                  ..                            ",
"                              ..                  ..                            ",
"                           ...OO...            ...OO...                         ",
"                           ...OO...            ...OO...                         ",
"                           ...OOOOO..        ..OOOOO...                         ",
"                           ...OOOOO..        ..OOOOO...                         ",
"                           ...OOOOO..        ..OOOOO...                         ",
"                         ..OOOOOOOO..        ..OOOOOOOO..                       ",
"                         ..OOOOOOOO..        ..OOOOOOOO..                       ",
"                         ..OOOOOOOOOO...  ...OOOOOOOOOO..                       ",
"                         ..OOOOOOOOOO...  ...OOOOOOOOOO..                       ",
"                         ..OOOOOOOOOO...  ...OOOOOOOOOO..                       ",
"                      ...OOOOOOOOOOOO........OOOOOOOOOOOO...                    ",
"                      ...OOOOOOOOOOOO........OOOOOOOOOOOO...                    ",
"                      ...OOOOOOOOOOOOOOOOOOOOOOOOOOOOOOOO...                    ",
"                      ...OOOOOOOOOOOOOOOOOOOOOOOOOOOOOOOO...                    ",
"                      ...OOOOOOOOOOOOOOOOOOOOOOOOOOOOOOOO...                    ",
"                      ...OOOOOOO...OOOOOOOOOOOO...OOOOOOO...                    ",
"                      ...OOOOOOO...OOOOOOOOOOOO...OOOOOOO...                    ",
"                      ...OOOOOOOOOO..OOOOOOOO..OOOOOOOOOO...                    ",
"                      ...OOOOOOOOOO..OOOOOOOO..OOOOOOOOOO...                    ",
"                      ...OOOOOOOOOO..OOOOOOOO..OOOOOOOOOO...                    ",
"                    .......OOOOO...OOOOO..OOOOO...OOOOO.......                  ",
"                    .......OOOOO...OOOOO..OOOOO...OOOOO.......                  ",
"                 ...  ...OO...OOOOOOOOOOOOOOOOOOOOOO...OO...  ...               ",
"                 ...  ...OO...OOOOOOOOOOOOOOOOOOOOOO...OO...  ...               ",
"                 ...  ...OO...OOOOOOOOOOOOOOOOOOOOOO...OO...  ...               ",
"                      ...OOOOOOOOOO..OOO..OOO..OOOOOOOOOO...                    ",
"                      ...OOOOOOOOOO..OOO..OOO..OOOOOOOOOO...                    ",
"                         ..OOOOOOOOOO...OO...OOOOOOOOOO..                       ",
"                         ..OOOOOOOOOO...OO...OOOOOOOOOO..                       ",
"                         ..OOOOOOOOOO...OO...OOOOOOOOOO..                       ",
"                           ...OOOOOOOOOOOOOOOOOOOOOO...                         ",
"                           ...OOOOOOOOOOOOOOOOOOOOOO...                         ",
"                              .......OOOOOOOO.......                            ",
"                              .......OOOOOOOO.......                            ",
"                              .......OOOOOOOO.......                            ",
"                                   ..OOOOOOOO..                                 ",
"                                   ..OOOOOOOO..                                 ",
"                                ...OOOOOOOOOOOO...                              ",
"                                ...OOOOOOOOOOOO...                              ",
"                                ...OOOOOOOOOOOO...                              ",
"                              ..OOOOOOOOOOOOOOOOOO..                            ",
"                              ..OOOOOOOOOOOOOOOOOO..                            ",
"                           ...OOOOOOOOOOOOOOOOOOOOOO...                         ",
"                           ...OOOOOOOOOOOOOOOOOOOOOO...                         ",
"                           ...OOOOOOOOOOOOOOOOOOOOOO...                         ",
"                    .....  ...OOOOOOOOOOOOOOOOOOOOOO...  .....                  ",
"                    .....  ...OOOOOOOOOOOOOOOOOOOOOO...  .....                  ",
"                 ...OOOOO.....OOOOOOOOOO..OOOOOOOOOO.....OOOOO...               ",
"                 ...OOOOO.....OOOOOOOOOO..OOOOOOOOOO.....OOOOO...               ",
"                 ...OOOOO.....OOOOOOOOOO..OOOOOOOOOO.....OOOOO...               ",
"               ..OOOXXooooooooXXOOOOOOOO..OOOOOOOO.....OOOOOOOOOO..             ",
"               ..OOOXXooooooooXXOOOOOOOO..OOOOOOOO.....OOOOOOOOOO..             ",
"               ..OOOXXooooooooXXOOOOOOOO..OOOOOOOO..OOOOOOOOOOOOO..             ",
"               ..OOOXXooooooooXXOOOOOOOO..OOOOOOOO..OOOOOOOOOOOOO..             ",
"               ..OOOXXooooooooXXOOOOOOOO..OOOOOOOO..OOOOOOOOOOOOO..             ",
"               .......XXXooXXX..OOOOOOOO..OOOOOOOO..OOOOOOOO.................   ",
"               .......XXXooXXX..OOOOOOOO..OOOOOOOO..OOOOOOOO.................   ",
"            .....OOOOOOOOXXOOO..OOOOO........OOOOO..OOOOOOOOOOOOO..OOOOOOOOOO...",
"            .....OOOOOOOOXXOOO..OOOOO........OOOOO..OOOOOOOOOOOOO..OOOOOOOOOO...",
"            .....OOOOOOOOXXOOO..OOOOO........OOOOO..OOOOOOOOOOOOO..OOOOOOOOOO...",
"            ............................  ...................................   ",
"            ............................  ...................................   ",
"                                                                                ",
"                                                                                ",
"                                                                                ",
"                                                                                ",
"                                                                                ",
"                                                                                ",
"                                                                                ",
"                                                                                "
};
