/* XPM */
static char *_[] = {
/* columns rows colors chars-per-pixel */
"80 80 5 1 ",
"  c None",
". c black",
"X c #CB0000",
"o c #E50000",
"O c white",
/* pixels */
"                                                                                ",
"                                                                                ",
"                                                                                ",
"                                                                                ",
"                                                                                ",
"                                                                                ",
"                                                                                ",
"                              ..                  ..                            ",
"                              ..                  ..                            ",
"                              ..                  ..                            ",
"                           ...OO...            ...OO...                         ",
"                           ...OO...            ...OO...                         ",
"                           ...OOOOO..        ..OOOOO...                         ",
"                           ...OOOOO..        ..OOOOO...                         ",
"                           ...OOOOO..        ..OOOOO...                         ",
"                         ..OOOOOOOO..        ..OOOOOOOO..                       ",
"                         ..OOOOOOOO..        ..OOOOOOOO..                       ",
"                         ..OOOOOOOOOO...  ...OOOOOOOOOO..                       ",
"                         ..OOOOOOOOOO...  ...OOOOOOOOOO..                       ",
"                         ..OOOOOOOOOO...  ...OOOOOOOOOO..                       ",
"                      ...OOOOOOOOOOOO........OOOOOOOOOOOO...                    ",
"                      ...OOOOOOOOOOOO........OOOOOOOOOOOO...                    ",
"                      ...OOOOOOOOOOOOOOOOOOOOOOOOOOOOOOOO...                    ",
"                      ...OOOOOOOOOOOOOOOOOOOOOOOOOOOOOOOO...                    ",
"                      ...OOOOOOOOOOOOOOOOOOOOOOOOOOOOOOOO...                    ",
"                      ...OOOOOOOOOOOOOOOOOOOOOOOOOOOOOOOO...                    ",
"                      ...OOOOOOOOOOOOOOOOOOOOOOOOOOOOOOOO...                    ",
"                      ...OOOOO.....OOOOOOOOOOOO.....OOOOO...                    ",
"                      ...OOOOO.....OOOOOOOOOOOO.....OOOOO...                    ",
"                      ...OOOOO.....OOOOOOOOOOOO.....OOOOO...                    ",
"                    .......OOOOOOOOOOOOO..OOOOOOOOOOOOO.......                  ",
"                    .......OOOOOOOOOOOOO..OOOOOOOOOOOOO.......                  ",
"                 ...  ...OO...OOOOOOOOOOOOOOOOOOOOOO...OO...  ...               ",
"                 ...  ...OO...OOOOOOOOOOOOOOOOOOOOOO...OO...  ...               ",
"                 ...  ...OO...OOOOOOOOOOOOOOOOOOOOOO...OO...  ...               ",
"                      ...OOOOOOOOOO..OOO..OOO..OOOOOOOOOO...                    ",
"                      ...OOOOOOOOOO..OOO..OOO..OOOOOOOOOO...                    ",
"                         ..OOOOOOOOOO...OO...OOOOOOOOOO..                       ",
"                         ..OOOOOOOOOO...OO...OOOOOOOOOO..                       ",
"                         ..OOOOOOOOOO...OO...OOOOOOOOOO..                       ",
"                           ...OOOOOOOOOOOOOOOOOOOOOO...                         ",
"                           ...OOOOOOOOOOOOOOOOOOOOOO...                         ",
"                              .......OOOOOOOO.......                            ",
"                              .......OOOOOOOO.......                            ",
"                              .......OOOOOOOO.......                            ",
"                                   ..OOOOOOOO..                                 ",
"                                   ..OOOOOOOO..                                 ",
"                                ...OOOOOOOOOOOO...                              ",
"                                ...OOOOOOOOOOOO...                              ",
"                                ...OOOOOOOOOOOO...                              ",
"                              ..OOOOOOOOOOOOOOOOOO..                            ",
"                              ..OOOOOOOOOOOOOOOOOO..                            ",
"                    XXXXX  XXXXXOOOOOOOOOOOOOOOOOOOO...                         ",
"                    XXXXX  XXXXXOOOOOOOOOOOOOOOOOOOO...                         ",
"                    XXXXX  XXXXXOOOOOOOOOOOOOOOOOOOO...                         ",
"                    XXoooXXoooXXOOOOOOOOOOOOOOOOOOOO...  .....                  ",
"                    XXoooXXoooXXOOOOOOOOOOOOOOOOOOOO...  .....                  ",
"                 XXXooooooooooooXXXOOOOO..OOOOOOOOOO.....OOOOO...               ",
"                 XXXooooooooooooXXXOOOOO..OOOOOOOOOO.....OOOOO...               ",
"                 XXXooooooooooooXXXOOOOO..OOOOOOOOOO.....OOOOO...               ",
"               ..XXXooooooooooooXXXOOOOO..OOOOOOOO.....OOOOOOOOOO..             ",
"               ..XXXooooooooooooXXXOOOOO..OOOOOOOO.....OOOOOOOOOO..             ",
"               ..XXXooooooooooooXXXOOOOO..OOOOOOOO..OOOOOOOOOOOOO..             ",
"               ..XXXooooooooooooXXXOOOOO..OOOOOOOO..OOOOOOOOOOOOO..             ",
"               ..XXXooooooooooooXXXOOOOO..OOOOOOOO..OOOOOOOOOOOOO..             ",
"               .....XXooooooooXXOOOOOOOO..OOOOOOOO..OOOOOOOO.................   ",
"               .....XXooooooooXXOOOOOOOO..OOOOOOOO..OOOOOOOO.................   ",
"            .....OOOOOXXXooXXX..OOOOO........OOOOO..OOOOOOOOOOOOO..OOOOOOOOOO...",
"            .....OOOOOXXXooXXX..OOOOO........OOOOO..OOOOOOOOOOOOO..OOOOOOOOOO...",
"            .....OOOOOXXXooXXX..OOOOO........OOOOO..OOOOOOOOOOOOO..OOOOOOOOOO...",
"            .............XX.............  ...................................   ",
"            .............XX.............  ...................................   ",
"                                                                                ",
"                                                                                ",
"                                                                                ",
"                                                                                ",
"                                                                                ",
"                                                                                ",
"                                                                                ",
"                                                                                "
};
