/* XPM */
static char *_[] = {
/* columns rows colors chars-per-pixel */
"80 80 3 1 ",
"  c None",
". c black",
"X c white",
/* pixels */
"                                   ..........                                   ",
"                                   ..........                                   ",
"                      .............XXXXXXXXXX............                       ",
"                      .............XXXXXXXXXX............                       ",
"                      .............XXXXXXXXXX............                       ",
"                           ...XXXXXXXXXXXXXXXXXXXX..                            ",
"                           ...XXXXXXXXXXXXXXXXXXXX..                            ",
"                      .....XXXXX...XXXXXXXXXX..XXXXX.....                       ",
"                      .....XXXXX...XXXXXXXXXX..XXXXX.....                       ",
"                      .....XXXXX...XXXXXXXXXX..XXXXX.....                       ",
"                      ...XXXXXXX...XXXXXXXXXX..XXXXXXXX..                       ",
"                      ...XXXXXXX...XXXXXXXXXX..XXXXXXXX..                       ",
"                      ...XXXXXXX...XXXXXXXXXX..XXXXXXXX..                       ",
"                      ...XXXXXXX...XXXXXXXXXX..XXXXXXXX..                       ",
"                      ...XXXXXXX...XXXXXXXXXX..XXXXXXXX..                       ",
"                    ..XXXXXXXXXXXXXXXXXXXXXXXXXXXXXXXXXXX...                    ",
"                    ..XXXXXXXXXXXXXXXXXXXXXXXXXXXXXXXXXXX...                    ",
"                    ............XXXXXXXXXXXXXXX.............                    ",
"                    ............XXXXXXXXXXXXXXX.............                    ",
"                    ............XXXXXXXXXXXXXXX.............                    ",
"                    ..XXXXXXXXXXXXXXXXXXXXXXXXXXXXXXXXXXX...                    ",
"                    ..XXXXXXXXXXXXXXXXXXXXXXXXXXXXXXXXXXX...                    ",
"                      ...XXXXXXX...XXXXXXX...XXXXXXXXXX..                       ",
"                      ...XXXXXXX...XXXXXXX...XXXXXXXXXX..                       ",
"                      ...XXXXXXX...XXXXXXX...XXXXXXXXXX..                       ",
"                      ..........XXXXXXXXXXXXX............                       ",
"                      ..........XXXXXXXXXXXXX............                       ",
"                      .....XXXXXXXXXXXXXXXXXXXXXXXXX.....                       ",
"                      .....XXXXXXXXXXXXXXXXXXXXXXXXX.....                       ",
"                      .....XXXXXXXXXXXXXXXXXXXXXXXXX.....                       ",
"                 ..................XXXXXXXXXX.................                  ",
"                 ..................XXXXXXXXXX.................                  ",
"               .....XXXXX..XXXXXXXXXXXXXXXXXXXXXXXXX...XXXXX.....               ",
"               .....XXXXX..XXXXXXXXXXXXXXXXXXXXXXXXX...XXXXX.....               ",
"               .....XXXXX..XXXXXXXXXXXXXXXXXXXXXXXXX...XXXXX.....               ",
"               ..XXXXX...XXXXXXXXXXXXXXXXXXXXXXXXXXXXXX..XXXXX...               ",
"               ..XXXXX...XXXXXXXXXXXXXXXXXXXXXXXXXXXXXX..XXXXX...               ",
"               ..XXXXX...XXXXXXXXXXXXXXXXXXXXXXXXXXXXXX..XXXXX...               ",
"               ..XXXXX...XXXXXXXXXXXXXXXXXXXXXXXXXXXXXX..XXXXX...               ",
"               ..XXXXX...XXXXXXXXXXXXXXXXXXXXXXXXXXXXXX..XXXXX...               ",
"               ..XXX..XXXXXXXXXXXXXXXXXXXXXXXXXXXXXXXXXXX...XX...               ",
"               ..XXX..XXXXXXXXXXXXXXXXXXXXXXXXXXXXXXXXXXX...XX...               ",
"               ..XXXXXXXXXXXXXXXXXXXXXXXXXXXXXXXXXXXXXXXXXXXXX...               ",
"               ..XXXXXXXXXXXXXXXXXXXXXXXXXXXXXXXXXXXXXXXXXXXXX...               ",
"               ..XXXXXXXXXXXXXXXXXXXXXXXXXXXXXXXXXXXXXXXXXXXXX...               ",
"                 ...XXXXXXXXXXXXXXXXXXXXXXXXXXXXXXXXXXXXXXXX..                  ",
"                 ...XXXXXXXXXXXXXXXXXXXXXXXXXXXXXXXXXXXXXXXX..                  ",
"                 ...XXXXXXXXXXXXXXXXXXXXXXXXXXXXXXXXXXXXXXXX..                  ",
"                 ...XXXXXXXXXXXXXXXXXXXXXXXXXXXXXXXXXXXXXXXX..                  ",
"                 ...XXXXXXXXXXXXXXXXXXXXXXXXXXXXXXXXXXXXXXXX..                  ",
"                 ...XXXXXXXXXXXXXXXXXXXXXXXXXXXXXXXXXXXXXXXX..                  ",
"                 ...XXXXXXXXXXXXXXXXXXXXXXXXXXXXXXXXXXXXXXXX..                  ",
"                 ...XXXXXXXXXXXXXXXXXXXXXXXXXXXXXXXXXXXXXXXX..                  ",
"                 ...XXXXXXXXXXXXXXXXXXXXXXXXXXXXXXXXXXXXXXXX..                  ",
"                 ...XXXXXXXXXXXXXXXXXXXXXXXXXXXXXXXXXXXXXXXX..                  ",
"                    ..XXXXXXXXXXXXXXXXXXXXXXXXXXXXXXXXXXX...                    ",
"                    ..XXXXXXXXXXXXXXXXXXXXXXXXXXXXXXXXXXX...                    ",
"                      .....XXXXXXXXXXXXXXXXXXXXXXXXX.....                       ",
"                      .....XXXXXXXXXXXXXXXXXXXXXXXXX.....                       ",
"                      .....XXXXXXXXXXXXXXXXXXXXXXXXX.....                       ",
"                           ..........XXXXX..........                            ",
"                           ..........XXXXX..........                            ",
"                                   ..XXXXX...                                   ",
"                                   ..XXXXX...                                   ",
"                                   ..XXXXX...                                   ",
"                                   ..XXXXX...                                   ",
"                                   ..XXXXX...                                   ",
"                                   ..XXXXX...                                   ",
"                                   ..XXXXX...                                   ",
"                                   ..XXXXX...                                   ",
"                                   ..XXXXX...                                   ",
"                                   ..XXXXX...                                   ",
"                                     .....                                      ",
"                                     .....                                      ",
"                                     .....                                      ",
"                                                                                ",
"                                                                                ",
"                                                                                ",
"                                                                                ",
"                                                                                "
};
