/* XPM */
static char *_[] = {
/* columns rows colors chars-per-pixel */
"80 80 3 1 ",
"  c None",
". c black",
"X c white",
/* pixels */
"                                   ..........                                   ",
"                                   ..........                                   ",
"                 ..................XXXXXXXXXX.................                  ",
"                 ..................XXXXXXXXXX.................                  ",
"                 ..................XXXXXXXXXX.................                  ",
"               ..XXX.....XX...XXXXXXXXXXXXXXXXXXXX..XXX.....XX...               ",
"               ..XXX.....XX...XXXXXXXXXXXXXXXXXXXX..XXX.....XX...               ",
"               ..XXXXX.....XXXXX...XXXXXXXXXX..XXXXX.....XXXXX...               ",
"               ..XXXXX.....XXXXX...XXXXXXXXXX..XXXXX.....XXXXX...               ",
"               ..XXXXX.....XXXXX...XXXXXXXXXX..XXXXX.....XXXXX...               ",
"               ..XXXXX...XXXXXXX...XXXXXXXXXX..XXXXXXXX..XXXXX...               ",
"               ..XXXXX...XXXXXXX...XXXXXXXXXX..XXXXXXXX..XXXXX...               ",
"               ..XXXXX...XXXXXXX...XXXXXXXXXX..XXXXXXXX..XXXXX...               ",
"               ..XXXXX...XXXXXXX...XXXXXXXXXX..XXXXXXXX..XXXXX...               ",
"               ..XXXXX...XXXXXXX...XXXXXXXXXX..XXXXXXXX..XXXXX...               ",
"               ..XXX..XXXXXXXXXXXXXXXXXXXXXXXXXXXXXXXXXXX...XX...               ",
"               ..XXX..XXXXXXXXXXXXXXXXXXXXXXXXXXXXXXXXXXX...XX...               ",
"               ..XXX............XXXXXXXXXXXXXXX.............XX...               ",
"               ..XXX............XXXXXXXXXXXXXXX.............XX...               ",
"               ..XXX............XXXXXXXXXXXXXXX.............XX...               ",
"               ..XXX..XXXXXXXXXXXXXXXXXXXXXXXXXXXXXXXXXXX...XX...               ",
"               ..XXX..XXXXXXXXXXXXXXXXXXXXXXXXXXXXXXXXXXX...XX...               ",
"               ..XXXXX...XXXXXXX...XXXXXXX...XXXXXXXXXX..XXXXX...               ",
"               ..XXXXX...XXXXXXX...XXXXXXX...XXXXXXXXXX..XXXXX...               ",
"               ..XXXXX...XXXXXXX...XXXXXXX...XXXXXXXXXX..XXXXX...               ",
"                 ...XX..........XXXXXXXXXXXXX............XXX..                  ",
"                 ...XX..........XXXXXXXXXXXXX............XXX..                  ",
"                 ...XXXXX..XXXXXXXXXXXXXXXXXXXXXXXXX...XXXXX..                  ",
"                 ...XXXXX..XXXXXXXXXXXXXXXXXXXXXXXXX...XXXXX..                  ",
"                 ...XXXXX..XXXXXXXXXXXXXXXXXXXXXXXXX...XXXXX..                  ",
"                 ...XXXXXXX........XXXXXXXXXX.......XXXXXXXX..                  ",
"                 ...XXXXXXX........XXXXXXXXXX.......XXXXXXXX..                  ",
"                 ...XXXXXXXXXXXXXXXXXXXXXXXXXXXXXXXXXXXXXXXX..                  ",
"                 ...XXXXXXXXXXXXXXXXXXXXXXXXXXXXXXXXXXXXXXXX..                  ",
"                 ...XXXXXXXXXXXXXXXXXXXXXXXXXXXXXXXXXXXXXXXX..                  ",
"                    ..XXXXXXXXXXXXXXXXXXXXXXXXXXXXXXXXXXX...                    ",
"                    ..XXXXXXXXXXXXXXXXXXXXXXXXXXXXXXXXXXX...                    ",
"                    ..XXX.....XXXXXXXXXXXXXXXXXXXX.....XX...                    ",
"                    ..XXX.....XXXXXXXXXXXXXXXXXXXX.....XX...                    ",
"                    ..XXX.....XXXXXXXXXXXXXXXXXXXX.....XX...                    ",
"                    .....XXXXXXXXXXXX.....XXXXXXXXXXXXX.....                    ",
"                    .....XXXXXXXXXXXX.....XXXXXXXXXXXXX.....                    ",
"                    ..XXXXXXXXXXXXX..XXXXX...XXXXXXXXXXXX...                    ",
"                    ..XXXXXXXXXXXXX..XXXXX...XXXXXXXXXXXX...                    ",
"                    ..XXXXXXXXXXXXX..XXXXX...XXXXXXXXXXXX...                    ",
"                 ...XXXXXXXXXXXXXXX..XXXXX...XXXXXXXXXXXXXXX..                  ",
"                 ...XXXXXXXXXXXXXXX..XXXXX...XXXXXXXXXXXXXXX..                  ",
"                 ...XXXXXXXXXXXXXXX..XXXXX...XXXXXXXXXXXXXXX..                  ",
"                 ...XXXXXXXXXXXXXXX..XXXXX...XXXXXXXXXXXXXXX..                  ",
"                 ...XXXXXXXXXXXXXXX..XXXXX...XXXXXXXXXXXXXXX..                  ",
"                 ...XXXXXXXXXXXXXXX..XXXXX...XXXXXXXXXXXXXXX..                  ",
"                 ...XXXXXXXXXXXXXXX..XXXXX...XXXXXXXXXXXXXXX..                  ",
"                 ...XXXXXXXXXXXXXXX..XXXXX...XXXXXXXXXXXXXXX..                  ",
"                 ...XXXXXXXXXXXXXXX..XXXXX...XXXXXXXXXXXXXXX..                  ",
"                 ...XXXXXXXXXXXXXXX..XXXXX...XXXXXXXXXXXXXXX..                  ",
"                 ...XXXXXXXXXXXXXXX..XXXXX...XXXXXXXXXXXXXXX..                  ",
"                 ...XXXXXXXXXXXXXXX..XXXXX...XXXXXXXXXXXXXXX..                  ",
"                 ...XXXXXXXXXXXXXXXXXXXXXXXXXXXXXXXXXXXXXXXX..                  ",
"                 ...XXXXXXXXXXXXXXXXXXXXXXXXXXXXXXXXXXXXXXXX..                  ",
"                 ...XXXXXXXXXXXXXXXXXXXXXXXXXXXXXXXXXXXXXXXX..                  ",
"                 ...XXXXXXXXXXXXXXX..........XXXXXXXXXXXXXXX..                  ",
"                 ...XXXXXXXXXXXXXXX..........XXXXXXXXXXXXXXX..                  ",
"                    ..XXXXXXXXXXXXX..     ...XXXXXXXXXXXX...                    ",
"                    ..XXXXXXXXXXXXX..     ...XXXXXXXXXXXX...                    ",
"                    ..XXXXXXXXXXXXX..     ...XXXXXXXXXXXX...                    ",
"                    ..XXXXXXXXXX...          ..XXXXXXXXXX...                    ",
"                    ..XXXXXXXXXX...          ..XXXXXXXXXX...                    ",
"                    ..XXXXXXXX..               ...XXXXXXX...                    ",
"                    ..XXXXXXXX..               ...XXXXXXX...                    ",
"                    ..XXXXXXXX..               ...XXXXXXX...                    ",
"                    ..XXXXX...                    ..XXXXX...                    ",
"                    ..XXXXX...                    ..XXXXX...                    ",
"                      .....                         .....                       ",
"                      .....                         .....                       ",
"                      .....                         .....                       ",
"                                                                                ",
"                                                                                ",
"                                                                                ",
"                                                                                ",
"                                                                                "
};
