/* XPM */
static char *_[] = {
/* columns rows colors chars-per-pixel */
"80 80 3 1 ",
"  c None",
". c black",
"X c white",
/* pixels */
"                                                                                ",
"                                                                                ",
"                                                                                ",
"                                                                                ",
"                                                                                ",
"                                                                                ",
"                                                                                ",
"                                          ........                              ",
"                                          ........                              ",
"                                          ........                              ",
"                                     .....XXXXXXXX.....                         ",
"                                     .....XXXXXXXX.....                         ",
"                                .....XXXXXXXXXXXXXXXXXX.....                    ",
"                                .....XXXXXXXXXXXXXXXXXX.....                    ",
"                                .....XXXXXXXXXXXXXXXXXX.....                    ",
"                              ..XXXXXXXXXXXXXXXXXXXXXXXXXXXX..                  ",
"                              ..XXXXXXXXXXXXXXXXXXXXXXXXXXXX..                  ",
"                           ...XXXXXXXXXXXXXXXXXXXXXXXXXXXXXX..                  ",
"                           ...XXXXXXXXXXXXXXXXXXXXXXXXXXXXXX..                  ",
"                           ...XXXXXXXXXXXXXXXXXXXXXXXXXXXXXX..                  ",
"     .....               ..XXXXXXXXXXXXXXXXXXXXXXXXXXXXXXXXXXX...               ",
"     .....               ..XXXXXXXXXXXXXXXXXXXXXXXXXXXXXXXXXXX...               ",
"     ..XXX..             ..XXXXXXXXXXXXXXXXXXXXXXXXXXXXXXXXXXXXXX..             ",
"     ..XXX..             ..XXXXXXXXXXXXXXXXXXXXXXXXXXXXXXXXXXXXXX..             ",
"     ..XXX..             ..XXXXXXXXXXXXXXXXXXXXXXXXXXXXXXXXXXXXXX..             ",
"     ..XXXXX.....     ...XXXXXXXXXXXXXXXXXXXXXXXXXXXXXXXXXXXXXXXXXX...          ",
"     ..XXXXX.....     ...XXXXXXXXXXXXXXXXXXXXXXXXXXXXXXXXXXXXXXXXXX...          ",
"       ...XXXXXXX........XXXXXXXXXXXXXXX..XXXXXXXXXXXXXXXXXXXX...XXXXX..        ",
"       ...XXXXXXX........XXXXXXXXXXXXXXX..XXXXXXXXXXXXXXXXXXXX...XXXXX..        ",
"       ...XXXXXXX........XXXXXXXXXXXXXXX..XXXXXXXXXXXXXXXXXXXX...XXXXX..        ",
"       ...XXXXXXXXXXXXXXX..XXXXXXXXXX...XXXXXXXXXXXXXXXXXXXX.....XXXXXXX...     ",
"       ...XXXXXXXXXXXXXXX..XXXXXXXXXX...XXXXXXXXXXXXXXXXXXXX.....XXXXXXX...     ",
"       ...XXXXXXXXXXXXXXXXXXXXXXXXXXX...XXXXXXXXXXXXXXXXXXXX..   ..XXXXXXXX..   ",
"       ...XXXXXXXXXXXXXXXXXXXXXXXXXXX...XXXXXXXXXXXXXXXXXXXX..   ..XXXXXXXX..   ",
"       ...XXXXXXXXXXXXXXXXXXXXXXXXXXX...XXXXXXXXXXXXXXXXXXXX..   ..XXXXXXXX..   ",
"     ..XXXXXXXXXXXXXXXXXXXXXXXXXXXX..XXXXXXXXXXXXXXXXXXXXXXX..     ...XXXXX..   ",
"     ..XXXXXXXXXXXXXXXXXXXXXXXXXXXX..XXXXXXXXXXXXXXXXXXXXXXX..     ...XXXXX..   ",
"  ...XXXXX..XXXXXXXXXXXXXXXXXXXXXXX..XXXXXXXXXXXXXXXXXXXXXXXXX...     ..XXXXX...",
"  ...XXXXX..XXXXXXXXXXXXXXXXXXXXXXX..XXXXXXXXXXXXXXXXXXXXXXXXX...     ..XXXXX...",
"  ...XXXXX..XXXXXXXXXXXXXXXXXXXXXXX..XXXXXXXXXXXXXXXXXXXXXXXXX...     ..XXXXX...",
"  ...XXXXX..XXXXXXXXXXXXXXXXXXXXXXX..XXXXXXXXXXXXXXXXXXXXXXXXXXXX..     ...XX...",
"  ...XXXXX..XXXXXXXXXXXXXXXXXXXXXXX..XXXXXXXXXXXXXXXXXXXXXXXXXXXX..     ...XX...",
"  ...XXXXX..XXXXXXXX.......XXXXXXXXXX...XXXXXXXXXXXXXXXXXXXXXX...          .....",
"  ...XXXXX..XXXXXXXX.......XXXXXXXXXX...XXXXXXXXXXXXXXXXXXXXXX...          .....",
"  ...XXXXX..XXXXXXXX.......XXXXXXXXXX...XXXXXXXXXXXXXXXXXXXXXX...          .....",
".....XXXXXXXXXX.......XXXXXXXXXXXXXXX...XXXXXXXXXXXXXXXXXXXX..                  ",
".....XXXXXXXXXX.......XXXXXXXXXXXXXXX...XXXXXXXXXXXXXXXXXXXX..                  ",
"..XXXXXXXXXXXXXXXXXXXXXXXXXXXXXXXXX..XXX.....XXXXXXXXXXXXXXX..                  ",
"..XXXXXXXXXXXXXXXXXXXXXXXXXXXXXXXXX..XXX.....XXXXXXXXXXXXXXX..                  ",
"..XXXXXXXXXXXXXXXXXXXXXXXXXXXXXXXXX..XXX.....XXXXXXXXXXXXXXX..                  ",
"  ...XXXXXXXXXXXXXXXXXXXXXXXXXXXXXXXX...XX..........XXXXX.....                  ",
"  ...XXXXXXXXXXXXXXXXXXXXXXXXXXXXXXXX...XX..........XXXXX.....                  ",
"     ..XXXXXXXXXXXXX.....XXXXXXXXXXXXXXX..XXXXXXXX..XXXXX.....                  ",
"     ..XXXXXXXXXXXXX.....XXXXXXXXXXXXXXX..XXXXXXXX..XXXXX.....                  ",
"     ..XXXXXXXXXXXXX.....XXXXXXXXXXXXXXX..XXXXXXXX..XXXXX.....                  ",
"       .............  ........XXXXXXXXXXXX........XXXXX..XXXXX...               ",
"       .............  ........XXXXXXXXXXXX........XXXXX..XXXXX...               ",
"                         ..XXX.....XXXXXXXXXXXX...XXXXX.....XX...               ",
"                         ..XXX.....XXXXXXXXXXXX...XXXXX.....XX...               ",
"                         ..XXX.....XXXXXXXXXXXX...XXXXX.....XX...               ",
"                           ...XXXXX...............XX...     .....               ",
"                           ...XXXXX...............XX...     .....               ",
"                              ..XXXXX...       ........                         ",
"                              ..XXXXX...       ........                         ",
"                              ..XXXXX...       ........                         ",
"                                ........       .....                            ",
"                                ........       .....                            ",
"                                                                                ",
"                                                                                ",
"                                                                                ",
"                                                                                ",
"                                                                                ",
"                                                                                ",
"                                                                                ",
"                                                                                ",
"                                                                                ",
"                                                                                ",
"                                                                                ",
"                                                                                ",
"                                                                                "
};
