/* XPM */
static char *_[] = {
/* columns rows colors chars-per-pixel */
"80 80 3 1 ",
"  c None",
". c black",
"X c white",
/* pixels */
"                                                                                ",
"                                                                                ",
"                                                                                ",
"                                                                                ",
"                                                                                ",
"                                                                                ",
"                                                                                ",
"            ...                                                         ........",
"            ...                                                         ........",
"            ...                                                         ........",
"            .....                                                     ..XXXXX...",
"            .....                                                     ..XXXXX...",
"            ...XX...                                               ...XXXXXXX...",
"            ...XX...                                               ...XXXXXXX...",
"            ...XX...                                               ...XXXXXXX...",
"            ...XXXXX..                                           ..XXXXXXXX..   ",
"            ...XXXXX..                                           ..XXXXXXXX..   ",
"            ...XXXXXXX...                                     ...XXXXXXX...     ",
"            ...XXXXXXX...                                     ...XXXXXXX...     ",
"            ...XXXXXXX...                                     ...XXXXXXX...     ",
"          .....XXXXXXXXXX.....                              ..XXXXXXXX..        ",
"          .....XXXXXXXXXX.....                              ..XXXXXXXX..        ",
"       ...XXXXXXXXXXXXXXXXXXXX..                       .....XXXXXXX...          ",
"       ...XXXXXXXXXXXXXXXXXXXX..                       .....XXXXXXX...          ",
"       ...XXXXXXXXXXXXXXXXXXXX..                       .....XXXXXXX...          ",
"     ..XXXXX...XXXXXXXXXXXXXXX.....            ........XXXXXXXXXXXX...          ",
"     ..XXXXX...XXXXXXXXXXXXXXX.....            ........XXXXXXXXXXXX...          ",
"     ..XXXXX...XXXXXXXXXXXXXXXXX...       .....XXXXXXXXXXXXXXXXXXXX...          ",
"     ..XXXXX...XXXXXXXXXXXXXXXXX...       .....XXXXXXXXXXXXXXXXXXXX...          ",
"     ..XXXXX...XXXXXXXXXXXXXXXXX...       .....XXXXXXXXXXXXXXXXXXXX...          ",
"     ..XXXXX...XXXXXXXXXXXXXXXXXXXX..   ..XXXXXXXXXXXXXXXXXXXXXXXXXXXX..        ",
"     ..XXXXX...XXXXXXXXXXXXXXXXXXXX..   ..XXXXXXXXXXXXXXXXXXXXXXXXXXXX..        ",
"  ...XXXXXXXXXXXXXXXXXXXXXXXXXXXXXX.....XXXXXXXXXXXXXXXXXXXXXXXXXXXXXX..        ",
"  ...XXXXXXXXXXXXXXXXXXXXXXXXXXXXXX.....XXXXXXXXXXXXXXXXXXXXXXXXXXXXXX..        ",
"  ...XXXXXXXXXXXXXXXXXXXXXXXXXXXXXX.....XXXXXXXXXXXXXXXXXXXXXXXXXXXXXX..        ",
"  ...XXXXXXXXXX..........XXXXXXXXXXXXXXXXXXXXXXXXXXXXXXXXXXXXXXXXXXXXX..        ",
"  ...XXXXXXXXXX..........XXXXXXXXXXXXXXXXXXXXXXXXXXXXXXXXXXXXXXXXXXXXX..        ",
"  ...XXXXXXXXXXXXXXXXXXXXXXXXXXXXXXXXXXXXXXXXXXXXXXXXXXXXXXXXXXXXXXXXX..        ",
"  ...XXXXXXXXXXXXXXXXXXXXXXXXXXXXXXXXXXXXXXXXXXXXXXXXXXXXXXXXXXXXXXXXX..        ",
"  ...XXXXXXXXXXXXXXXXXXXXXXXXXXXXXXXXXXXXXXXXXXXXXXXXXXXXXXXXXXXXXXXXX..        ",
"     ..XXXXXXXXXXXXXXXXXXXXXXXXXXXXXXXXXXXXXXXXXXXXXXXXXXXXXXXXXXXXXXX..        ",
"     ..XXXXXXXXXXXXXXXXXXXXXXXXXXXXXXXXXXXXXXXXXXXXXXXXXXXXXXXXXXXXXXX..        ",
"       ..........XXXXXXXXXXXXXXXXXXXXXXXXXXXXXXXXXXXXXXXXXXXXXXXXXXXXXXX...     ",
"       ..........XXXXXXXXXXXXXXXXXXXXXXXXXXXXXXXXXXXXXXXXXXXXXXXXXXXXXXX...     ",
"       ..........XXXXXXXXXXXXXXXXXXXXXXXXXXXXXXXXXXXXXXXXXXXXXXXXXXXXXXX...     ",
"                 ..........XXXXXXXXXXXXXXXXXXXX...XXXXXXXXXXXXXXXXXXXXXX...     ",
"                 ..........XXXXXXXXXXXXXXXXXXXX...XXXXXXXXXXXXXXXXXXXXXX...     ",
"                 ...XXXXXXXXXXXXXXXXXXXXXXXXXXXXXX.....XXXXXXXXXXXXXXXXXXXX.....",
"                 ...XXXXXXXXXXXXXXXXXXXXXXXXXXXXXX.....XXXXXXXXXXXXXXXXXXXX.....",
"                 ...XXXXXXXXXXXXXXXXXXXXXXXXXXXXXX.....XXXXXXXXXXXXXXXXXXXX.....",
"               .....XXXXXXXXXXXXXXXXXXXXXXXXXXXXXXXXXXX.......XXXXXXXXXXXXXXX...",
"               .....XXXXXXXXXXXXXXXXXXXXXXXXXXXXXXXXXXX.......XXXXXXXXXXXXXXX...",
"            .....XXXXXXXXXX.....XXXXXXXXXXXXXXX..........XXXXX..........XXXXX...",
"            .....XXXXXXXXXX.....XXXXXXXXXXXXXXX..........XXXXX..........XXXXX...",
"            .....XXXXXXXXXX.....XXXXXXXXXXXXXXX..........XXXXX..........XXXXX...",
"          ..XXXXXXXXXXXXX..XXX.................          ..........XXXXX...XX...",
"          ..XXXXXXXXXXXXX..XXX.................          ..........XXXXX...XX...",
"       ...XXXXXXXXXX.....XX........                                ...XXXXX.....",
"       ...XXXXXXXXXX.....XX........                                ...XXXXX.....",
"       ...XXXXXXXXXX.....XX........                                ...XXXXX.....",
"     ..XXXXXXXX.....XXXXX..                                           .....     ",
"     ..XXXXXXXX.....XXXXX..                                           .....     ",
"       ........     .....                                                       ",
"       ........     .....                                                       ",
"       ........     .....                                                       ",
"                                                                                ",
"                                                                                ",
"                                                                                ",
"                                                                                ",
"                                                                                ",
"                                                                                ",
"                                                                                ",
"                                                                                ",
"                                                                                ",
"                                                                                ",
"                                                                                ",
"                                                                                ",
"                                                                                ",
"                                                                                ",
"                                                                                "
};
