/* XPM */
static char *_[] = {
/* columns rows colors chars-per-pixel */
"80 80 3 1 ",
"  c None",
". c black",
"X c white",
/* pixels */
"                                                                                ",
"                                                                                ",
"                                                                                ",
"                                                                                ",
"                                                                                ",
"                                                                                ",
"                                                                                ",
"                              .......                                           ",
"                              .......                                           ",
"                              .......                                           ",
"                         .....XXXXXXX.....                                      ",
"                         .....XXXXXXX.....                                      ",
"                    .....XXXXXXXXXXXXXXXXX.....                                 ",
"                    .....XXXXXXXXXXXXXXXXX.....                                 ",
"                    .....XXXXXXXXXXXXXXXXX.....                                 ",
"                 ...XXXXXXXXXXXXXXXXXXXXXXXXXXX...                              ",
"                 ...XXXXXXXXXXXXXXXXXXXXXXXXXXX...                              ",
"                 ...XXXXXXXXXXXXXXXXXXXXXXXXXXXXXX..                            ",
"                 ...XXXXXXXXXXXXXXXXXXXXXXXXXXXXXX..                            ",
"                 ...XXXXXXXXXXXXXXXXXXXXXXXXXXXXXX..                            ",
"               ..XXXXXXXXXXXXXXXXXXXXXXXXXXXXXXXXXXX...               .....     ",
"               ..XXXXXXXXXXXXXXXXXXXXXXXXXXXXXXXXXXX...               .....     ",
"            ...XXXXXXXXXXXXXXXXXXXXXXXXXXXXXXXXXXXXX...            ...XX...     ",
"            ...XXXXXXXXXXXXXXXXXXXXXXXXXXXXXXXXXXXXX...            ...XX...     ",
"            ...XXXXXXXXXXXXXXXXXXXXXXXXXXXXXXXXXXXXX...            ...XX...     ",
"          ..XXXXXXXXXXXXXXXXXXXXXXXXXXXXXXXXXXXXXXXXXXX..     .....XXXXX...     ",
"          ..XXXXXXXXXXXXXXXXXXXXXXXXXXXXXXXXXXXXXXXXXXX..     .....XXXXX...     ",
"       ...XXXXX..XXXXXXXXXXXXXXXXXXXX...XXXXXXXXXXXXXXX.......XXXXXXXX..        ",
"       ...XXXXX..XXXXXXXXXXXXXXXXXXXX...XXXXXXXXXXXXXXX.......XXXXXXXX..        ",
"       ...XXXXX..XXXXXXXXXXXXXXXXXXXX...XXXXXXXXXXXXXXX.......XXXXXXXX..        ",
"     ..XXXXXXXX.....XXXXXXXXXXXXXXXXXXXX..XXXXXXXXXX...XXXXXXXXXXXXXXX..        ",
"     ..XXXXXXXX.....XXXXXXXXXXXXXXXXXXXX..XXXXXXXXXX...XXXXXXXXXXXXXXX..        ",
"  ...XXXXXXX...  ...XXXXXXXXXXXXXXXXXXXX..XXXXXXXXXXXXXXXXXXXXXXXXXXXX..        ",
"  ...XXXXXXX...  ...XXXXXXXXXXXXXXXXXXXX..XXXXXXXXXXXXXXXXXXXXXXXXXXXX..        ",
"  ...XXXXXXX...  ...XXXXXXXXXXXXXXXXXXXX..XXXXXXXXXXXXXXXXXXXXXXXXXXXX..        ",
"  ...XXXXX..     ...XXXXXXXXXXXXXXXXXXXXXX...XXXXXXXXXXXXXXXXXXXXXXXXXXX...     ",
"  ...XXXXX..     ...XXXXXXXXXXXXXXXXXXXXXX...XXXXXXXXXXXXXXXXXXXXXXXXXXX...     ",
"..XXXXX...     ..XXXXXXXXXXXXXXXXXXXXXXXXX...XXXXXXXXXXXXXXXXXXXXXX...XXXXX..   ",
"..XXXXX...     ..XXXXXXXXXXXXXXXXXXXXXXXXX...XXXXXXXXXXXXXXXXXXXXXX...XXXXX..   ",
"..XXXXX...     ..XXXXXXXXXXXXXXXXXXXXXXXXX...XXXXXXXXXXXXXXXXXXXXXX...XXXXX..   ",
"..XXX..     ...XXXXXXXXXXXXXXXXXXXXXXXXXXX...XXXXXXXXXXXXXXXXXXXXXX...XXXXX..   ",
"..XXX..     ...XXXXXXXXXXXXXXXXXXXXXXXXXXX...XXXXXXXXXXXXXXXXXXXXXX...XXXXX..   ",
".....          ..XXXXXXXXXXXXXXXXXXXXXXX..XXXXXXXXXX........XXXXXXX...XXXXX..   ",
".....          ..XXXXXXXXXXXXXXXXXXXXXXX..XXXXXXXXXX........XXXXXXX...XXXXX..   ",
".....          ..XXXXXXXXXXXXXXXXXXXXXXX..XXXXXXXXXX........XXXXXXX...XXXXX..   ",
"                 ...XXXXXXXXXXXXXXXXXXXX..XXXXXXXX..XXXXX........XXXXXXXXXX.....",
"                 ...XXXXXXXXXXXXXXXXXXXX..XXXXXXXX..XXXXX........XXXXXXXXXX.....",
"                 ...XXXXXXXXXXXXXXX.....  ...XXXXXXXXXXXXXXXXXXXXXXXXXXXXXXXX...",
"                 ...XXXXXXXXXXXXXXX.....  ...XXXXXXXXXXXXXXXXXXXXXXXXXXXXXXXX...",
"                 ...XXXXXXXXXXXXXXX.....  ...XXXXXXXXXXXXXXXXXXXXXXXXXXXXXXXX...",
"                 .....XXXXX..........   ..XXXXXXXXXXXXXXXXXXXXXXXXXXXXXXXXX..   ",
"                 .....XXXXX..........   ..XXXXXXXXXXXXXXXXXXXXXXXXXXXXXXXXX..   ",
"                 .....XXXXX...       ...XXXXXXXXXXXXXXX.....XXXXXXXXXXXX...     ",
"                 .....XXXXX...       ...XXXXXXXXXXXXXXX.....XXXXXXXXXXXX...     ",
"                 .....XXXXX...       ...XXXXXXXXXXXXXXX.....XXXXXXXXXXXX...     ",
"               ..XXXXX...XXXXX.......XXXXXXXXXXXXX.......   ............        ",
"               ..XXXXX...XXXXX.......XXXXXXXXXXXXX.......   ............        ",
"               ..XXX.....XXXXX..XXXXXXXXXXXXX.....XX...                         ",
"               ..XXX.....XXXXX..XXXXXXXXXXXXX.....XX...                         ",
"               ..XXX.....XXXXX..XXXXXXXXXXXXX.....XX...                         ",
"               .....     ..XXX...............XXXXX..                            ",
"               .....     ..XXX...............XXXXX..                            ",
"                         .......        ..XXXXX...                              ",
"                         .......        ..XXXXX...                              ",
"                         .......        ..XXXXX...                              ",
"                           .....        .......                                 ",
"                           .....        .......                                 ",
"                                                                                ",
"                                                                                ",
"                                                                                ",
"                                                                                ",
"                                                                                ",
"                                                                                ",
"                                                                                ",
"                                                                                ",
"                                                                                ",
"                                                                                ",
"                                                                                ",
"                                                                                ",
"                                                                                "
};
