/* XPM */
static char *_[] = {
/* columns rows colors chars-per-pixel */
"80 80 3 1 ",
"  c None",
". c black",
"X c white",
/* pixels */
"                                                                                ",
"                                                                                ",
"                                                                                ",
"                                                                                ",
"                                                                                ",
"                                                                                ",
"                                                                                ",
".......                                                          ..             ",
".......                                                          ..             ",
".......                                                          ..             ",
"..XXXXX...                                                    .....             ",
"..XXXXX...                                                    .....             ",
"..XXXXX.....                                                ..XXX..             ",
"..XXXXX.....                                                ..XXX..             ",
"..XXXXX.....                                                ..XXX..             ",
"  ...XXXXXXX...                                          ...XXXXX..             ",
"  ...XXXXXXX...                                          ...XXXXX..             ",
"     ..XXXXXXXX..                                      ..XXXXXXXX..             ",
"     ..XXXXXXXX..                                      ..XXXXXXXX..             ",
"     ..XXXXXXXX..                                      ..XXXXXXXX..             ",
"       ...XXXXXXX...                              .....XXXXXXXXXX.....          ",
"       ...XXXXXXX...                              .....XXXXXXXXXX.....          ",
"          ..XXXXXXXX.....                      ...XXXXXXXXXXXXXXXXXXXX..        ",
"          ..XXXXXXXX.....                      ...XXXXXXXXXXXXXXXXXXXX..        ",
"          ..XXXXXXXX.....                      ...XXXXXXXXXXXXXXXXXXXX..        ",
"          ..XXXXXXXXXXXXX.......             .....XXXXXXXXXXXXXXX..XXXXX...     ",
"          ..XXXXXXXXXXXXX.......             .....XXXXXXXXXXXXXXX..XXXXX...     ",
"          ..XXXXXXXXXXXXXXXXXXXX.....        ..XXXXXXXXXXXXXXXXXX..XXXXX...     ",
"          ..XXXXXXXXXXXXXXXXXXXX.....        ..XXXXXXXXXXXXXXXXXX..XXXXX...     ",
"          ..XXXXXXXXXXXXXXXXXXXX.....        ..XXXXXXXXXXXXXXXXXX..XXXXX...     ",
"       ...XXXXXXXXXXXXXXXXXXXXXXXXXXX...  ...XXXXXXXXXXXXXXXXXXXX..XXXXX...     ",
"       ...XXXXXXXXXXXXXXXXXXXXXXXXXXX...  ...XXXXXXXXXXXXXXXXXXXX..XXXXX...     ",
"       ...XXXXXXXXXXXXXXXXXXXXXXXXXXXXXX.....XXXXXXXXXXXXXXXXXXXXXXXXXXXXXX..   ",
"       ...XXXXXXXXXXXXXXXXXXXXXXXXXXXXXX.....XXXXXXXXXXXXXXXXXXXXXXXXXXXXXX..   ",
"       ...XXXXXXXXXXXXXXXXXXXXXXXXXXXXXX.....XXXXXXXXXXXXXXXXXXXXXXXXXXXXXX..   ",
"       ...XXXXXXXXXXXXXXXXXXXXXXXXXXXXXXXXXXXXXXXXXXXXX..........XXXXXXXXXX..   ",
"       ...XXXXXXXXXXXXXXXXXXXXXXXXXXXXXXXXXXXXXXXXXXXXX..........XXXXXXXXXX..   ",
"       ...XXXXXXXXXXXXXXXXXXXXXXXXXXXXXXXXXXXXXXXXXXXXXXXXXXXXXXXXXXXXXXXXX..   ",
"       ...XXXXXXXXXXXXXXXXXXXXXXXXXXXXXXXXXXXXXXXXXXXXXXXXXXXXXXXXXXXXXXXXX..   ",
"       ...XXXXXXXXXXXXXXXXXXXXXXXXXXXXXXXXXXXXXXXXXXXXXXXXXXXXXXXXXXXXXXXXX..   ",
"       ...XXXXXXXXXXXXXXXXXXXXXXXXXXXXXXXXXXXXXXXXXXXXXXXXXXXXXXXXXXXXXX...     ",
"       ...XXXXXXXXXXXXXXXXXXXXXXXXXXXXXXXXXXXXXXXXXXXXXXXXXXXXXXXXXXXXXX...     ",
"     ..XXXXXXXXXXXXXXXXXXXXXXXXXXXXXXXXXXXXXXXXXXXXXXXXXXXXXXX..........        ",
"     ..XXXXXXXXXXXXXXXXXXXXXXXXXXXXXXXXXXXXXXXXXXXXXXXXXXXXXXX..........        ",
"     ..XXXXXXXXXXXXXXXXXXXXXXXXXXXXXXXXXXXXXXXXXXXXXXXXXXXXXXX..........        ",
"     ..XXXXXXXXXXXXXXXXXXXXXXX..XXXXXXXXXXXXXXXXXXXXXXXXX.....                  ",
"     ..XXXXXXXXXXXXXXXXXXXXXXX..XXXXXXXXXXXXXXXXXXXXXXXXX.....                  ",
".....XXXXXXXXXXXXXXXXXXXX.....XXXXXXXXXXXXXXXXXXXXXXXXXXX.....                  ",
".....XXXXXXXXXXXXXXXXXXXX.....XXXXXXXXXXXXXXXXXXXXXXXXXXX.....                  ",
".....XXXXXXXXXXXXXXXXXXXX.....XXXXXXXXXXXXXXXXXXXXXXXXXXX.....                  ",
"..XXXXXXXXXXXXXXX........XXXXXXXXXXXXXXXXXXXXXXXXXXXXXXXXXXX.....               ",
"..XXXXXXXXXXXXXXX........XXXXXXXXXXXXXXXXXXXXXXXXXXXXXXXXXXX.....               ",
"..XXXXX..........XXXXX........XXXXXXXXXXXXXXXXX.....XXXXXXXXXX.....             ",
"..XXXXX..........XXXXX........XXXXXXXXXXXXXXXXX.....XXXXXXXXXX.....             ",
"..XXXXX..........XXXXX........XXXXXXXXXXXXXXXXX.....XXXXXXXXXX.....             ",
"..XXX.....XX..........     .......................XX...XXXXXXXXXXXX...          ",
"..XXX.....XX..........     .......................XX...XXXXXXXXXXXX...          ",
".......XXX..                                 .......XXX.....XXXXXXXXXX..        ",
".......XXX..                                 .......XXX.....XXXXXXXXXX..        ",
".......XXX..                                 .......XXX.....XXXXXXXXXX..        ",
"     .....                                          ...XXXXX.....XXXXXXX...     ",
"     .....                                          ...XXXXX.....XXXXXXX...     ",
"                                                       .....     .......        ",
"                                                       .....     .......        ",
"                                                       .....     .......        ",
"                                                                                ",
"                                                                                ",
"                                                                                ",
"                                                                                ",
"                                                                                ",
"                                                                                ",
"                                                                                ",
"                                                                                ",
"                                                                                ",
"                                                                                ",
"                                                                                ",
"                                                                                ",
"                                                                                ",
"                                                                                ",
"                                                                                "
};
