/* XPM */
static char *_[] = {
/* columns rows colors chars-per-pixel */
"80 80 3 1 ",
"  c None",
". c black",
"X c white",
/* pixels */
"                              .....            .....                            ",
"                              .....            .....                            ",
"                              ..XXX..        ..XXX..                            ",
"                              ..XXX..        ..XXX..                            ",
"                              ..XXX..        ..XXX..                            ",
"                              ..XXX..        ..XXX..                            ",
"                              ..XXX..        ..XXX..                            ",
"                           ...XXXXXXX........XXXXXXX...                         ",
"                           ...XXXXXXX........XXXXXXX...                         ",
"                           ...XXXXXXX........XXXXXXX...                         ",
"                           ...XXXXXXXXXXXXXXXXXXXXXX...                         ",
"                           ...XXXXXXXXXXXXXXXXXXXXXX...                         ",
"                           ...XXXXX..XXXXXXXX..XXXXX...                         ",
"                           ...XXXXX..XXXXXXXX..XXXXX...                         ",
"                           ...XXXXX..XXXXXXXX..XXXXX...                         ",
"                           ...XXXXX..XXXXXXXX..XXXXX...                         ",
"                           ...XXXXX..XXXXXXXX..XXXXX...                         ",
"                           ...XXXXXXXXXXXXXXXXXXXXXX...            ...          ",
"                           ...XXXXXXXXXXXXXXXXXXXXXX...            ...          ",
"                           ...XXXXXXXXXXXXXXXXXXXXXX...            ...          ",
"                           ...XX.....XXX..XXX.....XX...       .....XXX..        ",
"                           ...XX.....XXX..XXX.....XX...       .....XXX..        ",
"          .....               ..XXXXXXXXXXXXXXXXXX..     .....XXXXXXXX..        ",
"          .....               ..XXXXXXXXXXXXXXXXXX..     .....XXXXXXXX..        ",
"          .....               ..XXXXXXXXXXXXXXXXXX..     .....XXXXXXXX..        ",
"          ..XXX.....          ...........................XXXXXXXXXX...          ",
"          ..XXX.....          ...........................XXXXXXXXXX...          ",
"          ..XXXXXXXX...............XX........XXXXXXX...XXXXX.......             ",
"          ..XXXXXXXX...............XX........XXXXXXX...XXXXX.......             ",
"          ..XXXXXXXX...............XX........XXXXXXX...XXXXX.......             ",
"            .....XXXXXXXXXXXXXXXXXXXXXXXXXXXXXXXXXXXXXXXX...                    ",
"            .....XXXXXXXXXXXXXXXXXXXXXXXXXXXXXXXXXXXXXXXX...                    ",
"                 .............XXXXXXXXXXXXXXXXXXXXXXXXX..                       ",
"                 .............XXXXXXXXXXXXXXXXXXXXXXXXX..                       ",
"                 .............XXXXXXXXXXXXXXXXXXXXXXXXX..                       ",
"                           ...XXXXXXXXXX.....XXXXXXX...                         ",
"                           ...XXXXXXXXXX.....XXXXXXX...                         ",
"                           ...XXXXXXX...XXXXX..XXXXX...                         ",
"                           ...XXXXXXX...XXXXX..XXXXX...                         ",
"                           ...XXXXXXX...XXXXX..XXXXX...                         ",
"                           ...XXXXX..XXXXXXXXXX...XX...                         ",
"                           ...XXXXX..XXXXXXXXXX...XX...                         ",
"                           ...XXXXX..XXXXXXXXXX...XX...                         ",
"                           ...XXXXX..XXXXXXXXXX...XX...                         ",
"                           ...XXXXX..XXXXXXXXXX...XX...                         ",
"                           ...XXXXX..XXXXXXXXXX...XX...                         ",
"                           ...XXXXX..XXXXXXXXXX...XX...                         ",
"                           ...XXXXX..XXXXXXXXXX...XX...                         ",
"                           ...XXXXX..XXXXXXXXXX...XX...                         ",
"                           ...XXXXX..XXXXXXXXXX...XX...                         ",
"                           ...XXXXX..XXXXXXXXXX...XX...                         ",
"                           ...XXXXX..XXXXXXXXXX...XX...                         ",
"                           ...XXXXX..XXXXXXXXXX...XX...                         ",
"                           ...XXXXX..XXXXXXXXXX...XX...                         ",
"                           ...XXXXX..XXXXXXXXXX...XX...                         ",
"                           ...XXXXX..XXXXXXXXXX...XX...                         ",
"                           ...XXXXX..XXXXXXXXXX...XX...                         ",
"                           ...XXXXXXX...XXXXX..XXXXX.....                       ",
"                           ...XXXXXXX...XXXXX..XXXXX.....                       ",
"                           ...XXXXXXX...XXXXX..XXXXX.....                       ",
"                         ..XXXXX...............XXXXXXXXXX...                    ",
"                         ..XXXXX...............XXXXXXXXXX...                    ",
"                      ...XXXXX..               .....XXXXXXXX..                  ",
"                      ...XXXXX..               .....XXXXXXXX..                  ",
"                      ...XXXXX..               .....XXXXXXXX..                  ",
"                      ...XXXXX..                  .....XXXXX..                  ",
"                      ...XXXXX..                  .....XXXXX..                  ",
"                    ..XXXXX...                         ..XXX..                  ",
"                    ..XXXXX...                         ..XXX..                  ",
"                    ..XXXXX...                         ..XXX..                  ",
"                    ..XXX..                              ...                    ",
"                    ..XXX..                              ...                    ",
"                      ...                                                       ",
"                      ...                                                       ",
"                      ...                                                       ",
"                                                                                ",
"                                                                                ",
"                                                                                ",
"                                                                                ",
"                                                                                "
};
