/* XPM */
static char *_[] = {
/* columns rows colors chars-per-pixel */
"80 80 3 1 ",
"  c None",
". c black",
"X c white",
/* pixels */
"                              .....            .....                            ",
"                              .....            .....                            ",
"                              ..XXX..        ..XXX..                            ",
"                              ..XXX..        ..XXX..                            ",
"                              ..XXX..        ..XXX..                            ",
"                              ..XXX..        ..XXX..                            ",
"                              ..XXX..        ..XXX..                            ",
"                           ...XXXXXXX........XXXXXXX...                         ",
"                           ...XXXXXXX........XXXXXXX...                         ",
"                           ...XXXXXXX........XXXXXXX...                         ",
"                           ...XXXXXXXXXXXXXXXXXXXXXX...                         ",
"                           ...XXXXXXXXXXXXXXXXXXXXXX...                         ",
"                           ...XXXXX..XXXXXXXX..XXXXX...                         ",
"                           ...XXXXX..XXXXXXXX..XXXXX...                         ",
"                           ...XXXXX..XXXXXXXX..XXXXX...                         ",
"                           ...XXXXX..XXXXXXXX..XXXXX...          .....          ",
"                           ...XXXXX..XXXXXXXX..XXXXX...          .....          ",
"                           ...XXXXXXXXXXXXXXXXXXXXXX...       ...XXXXX..        ",
"                           ...XXXXXXXXXXXXXXXXXXXXXX...       ...XXXXX..        ",
"                           ...XXXXXXXXXXXXXXXXXXXXXX...       ...XXXXX..        ",
"                           ...XX.....XXX..XXX.....XX...  .....XXXXXXXX..        ",
"                           ...XX.....XXX..XXX.....XX...  .....XXXXXXXX..        ",
"                              ..XXXXXXXXXXXXXXXXXX.......XXXXXXXXXX...          ",
"                              ..XXXXXXXXXXXXXXXXXX.......XXXXXXXXXX...          ",
"                              ..XXXXXXXXXXXXXXXXXX.......XXXXXXXXXX...          ",
"          .....                 ....................XXXXXXXXXX.....             ",
"          .....                 ....................XXXXXXXXXX.....             ",
"       ...XXXXX....................XX........XXXXXXXXXXXX.....                  ",
"       ...XXXXX....................XX........XXXXXXXXXXXX.....                  ",
"       ...XXXXX....................XX........XXXXXXXXXXXX.....                  ",
"       ...XXXXXXXXXXXXXXXXXXXXXXXXXXXXXXXXXXXXXXXXXXXXX..                       ",
"       ...XXXXXXXXXXXXXXXXXXXXXXXXXXXXXXXXXXXXXXXXXXXXX..                       ",
"          .....XXXXXXXXXXXXXXXXXXXXXXXXXXXXXXXXXXXXX...                         ",
"          .....XXXXXXXXXXXXXXXXXXXXXXXXXXXXXXXXXXXXX...                         ",
"          .....XXXXXXXXXXXXXXXXXXXXXXXXXXXXXXXXXXXXX...                         ",
"               ...............XXXXXXXXXX.....XXXXXXX...                         ",
"               ...............XXXXXXXXXX.....XXXXXXX...                         ",
"                           ...XXXXXXX...XXXXX..XXXXX...                         ",
"                           ...XXXXXXX...XXXXX..XXXXX...                         ",
"                           ...XXXXXXX...XXXXX..XXXXX...                         ",
"                           ...XXXXX..XXXXXXXXXX...XX...                         ",
"                           ...XXXXX..XXXXXXXXXX...XX...                         ",
"                           ...XXXXX..XXXXXXXXXX...XX...                         ",
"                           ...XXXXX..XXXXXXXXXX...XX...                         ",
"                           ...XXXXX..XXXXXXXXXX...XX...                         ",
"                           ...XXXXX..XXXXXXXXXX...XX...                         ",
"                           ...XXXXX..XXXXXXXXXX...XX...                         ",
"                           ...XXXXX..XXXXXXXXXX...XX...                         ",
"                           ...XXXXX..XXXXXXXXXX...XX...                         ",
"                           ...XXXXX..XXXXXXXXXX...XX...                         ",
"                           ...XXXXX..XXXXXXXXXX...XX...                         ",
"                           ...XXXXX..XXXXXXXXXX...XX...                         ",
"                           ...XXXXX..XXXXXXXXXX...XX...                         ",
"                           ...XXXXX..XXXXXXXXXX...XX...                         ",
"                           ...XXXXX..XXXXXXXXXX...XX...                         ",
"                           ...XXXXX..XXXXXXXXXX...XX.....                       ",
"                           ...XXXXX..XXXXXXXXXX...XX.....                       ",
"                           ...XXXXXXX...XXXXX..XXXXXXXXXX...                    ",
"                           ...XXXXXXX...XXXXX..XXXXXXXXXX...                    ",
"                           ...XXXXXXX...XXXXX..XXXXXXXXXX...                    ",
"                           ...XXXXXXX...............XXXXXXXX.....               ",
"                           ...XXXXXXX...............XXXXXXXX.....               ",
"                         ..XXXXXXXX..               ...XXXXXXXXXX..             ",
"                         ..XXXXXXXX..               ...XXXXXXXXXX..             ",
"                         ..XXXXXXXX..               ...XXXXXXXXXX..             ",
"                      ...XXXXXXX...                    ..........               ",
"                      ...XXXXXXX...                    ..........               ",
"                    ..XXXXXXXX..                                                ",
"                    ..XXXXXXXX..                                                ",
"                    ..XXXXXXXX..                                                ",
"                    ..XXXXX...                                                  ",
"                    ..XXXXX...                                                  ",
"                    ..XXX..                                                     ",
"                    ..XXX..                                                     ",
"                    ..XXX..                                                     ",
"                      ...                                                       ",
"                      ...                                                       ",
"                                                                                ",
"                                                                                ",
"                                                                                "
};
