/* XPM */
static char *_[] = {
/* columns rows colors chars-per-pixel */
"80 80 3 1 ",
"  c None",
". c black",
"X c white",
/* pixels */
"                              .....            .....                            ",
"                              .....            .....                            ",
"                              ..XXX..        ..XXX..                            ",
"                              ..XXX..        ..XXX..                            ",
"                              ..XXX..        ..XXX..                            ",
"                              ..XXX..        ..XXX..                            ",
"                              ..XXX..        ..XXX..                            ",
"                           ...XXXXXXX........XXXXXXX...                         ",
"                           ...XXXXXXX........XXXXXXX...                         ",
"                           ...XXXXXXX........XXXXXXX...                         ",
"                           ...XXXXXXXXXXXXXXXXXXXXXX...                         ",
"                           ...XXXXXXXXXXXXXXXXXXXXXX...                         ",
"                           ...XXXXX..XXXXXXXX..XXXXX...                         ",
"                           ...XXXXX..XXXXXXXX..XXXXX...                         ",
"                           ...XXXXX..XXXXXXXX..XXXXX...                         ",
"                           ...XXXXX..XXXXXXXX..XXXXX...                         ",
"                           ...XXXXX..XXXXXXXX..XXXXX...                         ",
"                           ...XXXXXXXXXXXXXXXXXXXXXX...                         ",
"                           ...XXXXXXXXXXXXXXXXXXXXXX...                         ",
"                           ...XXXXXXXXXXXXXXXXXXXXXX...                         ",
"            ........       ...XX.....XXX..XXX.....XX...                         ",
"            ........       ...XX.....XXX..XXX.....XX...                         ",
"            ...XX........     ..XXXXXXXXXXXXXXXXXX..          ..........        ",
"            ...XX........     ..XXXXXXXXXXXXXXXXXX..          ..........        ",
"            ...XX........     ..XXXXXXXXXXXXXXXXXX..          ..........        ",
"            .....XXXXX........................................XXXXXXXX..        ",
"            .....XXXXX........................................XXXXXXXX..        ",
"               .......XXXXXXXX.....XX........XXXXXXXXXXXXXXXXXXXXXX.....        ",
"               .......XXXXXXXX.....XX........XXXXXXXXXXXXXXXXXXXXXX.....        ",
"               .......XXXXXXXX.....XX........XXXXXXXXXXXXXXXXXXXXXX.....        ",
"                    .......XXXXXXXXXXXXXXXXXXXXXXXXXXXXXX..........             ",
"                    .......XXXXXXXXXXXXXXXXXXXXXXXXXXXXXX..........             ",
"                         .....XXXXXXXXXXXXXXXXXXXXXXXXX.....                    ",
"                         .....XXXXXXXXXXXXXXXXXXXXXXXXX.....                    ",
"                         .....XXXXXXXXXXXXXXXXXXXXXXXXX.....                    ",
"                           ...XXXXXXXXXX.....XXXXXXXXXX..                       ",
"                           ...XXXXXXXXXX.....XXXXXXXXXX..                       ",
"                           ...XXXXXXX...XXXXX..XXXXX...                         ",
"                           ...XXXXXXX...XXXXX..XXXXX...                         ",
"                           ...XXXXXXX...XXXXX..XXXXX...                         ",
"                           ...XXXXX..XXXXXXXXXX...XX...                         ",
"                           ...XXXXX..XXXXXXXXXX...XX...                         ",
"                           ...XXXXX..XXXXXXXXXX...XX...                         ",
"                           ...XXXXX..XXXXXXXXXX...XX...                         ",
"                           ...XXXXX..XXXXXXXXXX...XX...                         ",
"                           ...XXXXX..XXXXXXXXXX...XX...                         ",
"                           ...XXXXX..XXXXXXXXXX...XX...                         ",
"                           ...XXXXX..XXXXXXXXXX...XX...                         ",
"                           ...XXXXX..XXXXXXXXXX...XX...                         ",
"                           ...XXXXX..XXXXXXXXXX...XX...                         ",
"                           ...XXXXX..XXXXXXXXXX...XX...                         ",
"                           ...XXXXX..XXXXXXXXXX...XX...                         ",
"                           ...XXXXX..XXXXXXXXXX...XX...                         ",
"                           ...XXXXX..XXXXXXXXXX...XX...                         ",
"                           ...XXXXX..XXXXXXXXXX...XX...                         ",
"                           ...XXXXX..XXXXXXXXXX...XX...                         ",
"                           ...XXXXX..XXXXXXXXXX...XX...                         ",
"                           ...XXXXXXX...XXXXX..XXXXX.....                       ",
"                           ...XXXXXXX...XXXXX..XXXXX.....                       ",
"                           ...XXXXXXX...XXXXX..XXXXX.....                       ",
"                         ..XXXXX...............XXXXXXXXXX...                    ",
"                         ..XXXXX...............XXXXXXXXXX...                    ",
"                      ...XXXXX..               .....XXXXXXXX..                  ",
"                      ...XXXXX..               .....XXXXXXXX..                  ",
"                      ...XXXXX..               .....XXXXXXXX..                  ",
"                      ...XXXXX..                  .....XXXXX..                  ",
"                      ...XXXXX..                  .....XXXXX..                  ",
"                    ..XXXXX...                         ..XXX..                  ",
"                    ..XXXXX...                         ..XXX..                  ",
"                    ..XXXXX...                         ..XXX..                  ",
"                    ..XXX..                              ...                    ",
"                    ..XXX..                              ...                    ",
"                      ...                                                       ",
"                      ...                                                       ",
"                      ...                                                       ",
"                                                                                ",
"                                                                                ",
"                                                                                ",
"                                                                                ",
"                                                                                "
};
