/* XPM */
static char *_[] = {
/* columns rows colors chars-per-pixel */
"80 80 3 1 ",
"  c None",
". c black",
"X c white",
/* pixels */
"                                        .......                                 ",
"                                        .......                                 ",
"                 .......................XXXXX..                                 ",
"                 .......................XXXXX..                                 ",
"                 .......................XXXXX..                                 ",
"               ..XXXXXXXXXX..........XXXXXXXX..                                 ",
"               ..XXXXXXXXXX..........XXXXXXXX..                                 ",
"            ..........XXX..XXXXX...XXXXXXXXXX..                                 ",
"            ..........XXX..XXXXX...XXXXXXXXXX..                                 ",
"            ..........XXX..XXXXX...XXXXXXXXXX..                                 ",
"  .....   .....XXXXXXX...XXXXXXX...XXXXXXXXXX..                                 ",
"  .....   .....XXXXXXX...XXXXXXX...XXXXXXXXXX..                                 ",
"       .....XXXXXXXX..XXXXXXXXXX...XXXXXXXXXX..                                 ",
"       .....XXXXXXXX..XXXXXXXXXX...XXXXXXXXXX..                                 ",
"       .....XXXXXXXX..XXXXXXXXXX...XXXXXXXXXX..                                 ",
"          ..XXXXXXXXXXXXXXXXXXXX...XXXXXXXXXX..                                 ",
"          ..XXXXXXXXXXXXXXXXXXXX...XXXXXXXXXX..                                 ",
"          ..XXXXXXXXXXXXXXXXXXXXXXXXXXXXXXXXX..                                 ",
"          ..XXXXXXXXXXXXXXXXXXXXXXXXXXXXXXXXX..                                 ",
"          ..XXXXXXXXXXXXXXXXXXXXXXXXXXXXXXXXX..                                 ",
"          ..XXXXXXXXXXXXXXXXXXXXXXXXXXXXXX.............                         ",
"          ..XXXXXXXXXXXXXXXXXXXXXXXXXXXXXX.............                         ",
"            ...XXXXXXXXXXXXXXXXXXXXXXXXX..XXXXXXXXXXXXX.......                  ",
"            ...XXXXXXXXXXXXXXXXXXXXXXXXX..XXXXXXXXXXXXX.......                  ",
"            ...XXXXXXXXXXXXXXXXXXXXXXXXX..XXXXXXXXXXXXX.......                  ",
"            ...XXXXXXXXXXXXXXXXXXXXXXXXXXXXXXXXXXXXXXXXXXXXXXX...               ",
"            ...XXXXXXXXXXXXXXXXXXXXXXXXXXXXXXXXXXXXXXXXXXXXXXX...               ",
"               .....XXXXXXXXXXXXXXXXXXXXXXXXXXXXXXXXXXXXXXXXXXXXX..             ",
"               .....XXXXXXXXXXXXXXXXXXXXXXXXXXXXXXXXXXXXXXXXXXXXX..             ",
"               .....XXXXXXXXXXXXXXXXXXXXXXXXXXXXXXXXXXXXXXXXXXXXX..             ",
"                    ..XXXXXXXXXXXXXXXXXXXXXXXXXXXXXXXXXXXXXXXXXXXXX...          ",
"                    ..XXXXXXXXXXXXXXXXXXXXXXXXXXXXXXXXXXXXXXXXXXXXX...          ",
"                    ..XXXXXXXXXXXXXXXXXXXXXXXXXXXXXXXXXXXXXXXXXXXXX...          ",
"                    ..XXXXXXXXXXXXXXXXXXXXXXXXXXXXXXXXXXXXXXXXXXXXX...          ",
"                    ..XXXXXXXXXXXXXXXXXXXXXXXXXXXXXXXXXXXXXXXXXXXXX...          ",
"                    ..XXXXXXXXXXXXXXXXXXXXXXXXXXXXXXXXXXXXXXXXXXXXXXXX..        ",
"                    ..XXXXXXXXXXXXXXXXXXXXXXXXXXXXXXXXXXXXXXXXXXXXXXXX..        ",
"                    ..XXXXXXXXXXXXXXXXXXXXXXXXXXXXXXXXXXXXXXXXXXXXXXXXXX...     ",
"                    ..XXXXXXXXXXXXXXXXXXXXXXXXXXXXXXXXXXXXXXXXXXXXXXXXXX...     ",
"                    ..XXXXXXXXXXXXXXXXXXXXXXXXXXXXXXXXXXXXXXXXXXXXXXXXXX...     ",
"                    .....XXXXXXXXXX.....XXXXXXXXXXXXXXXXXXXXXXXXXXXXXXXX...     ",
"                    .....XXXXXXXXXX.....XXXXXXXXXXXXXXXXXXXXXXXXXXXXXXXX...     ",
"                      ...XXXXXXX...XXXXXXXXXXXXXXXXXXXXXXXXXXXXXXXXXXXXX...     ",
"                      ...XXXXXXX...XXXXXXXXXXXXXXXXXXXXXXXXXXXXXXXXXXXXX...     ",
"                      ...XXXXXXX...XXXXXXXXXXXXXXXXXXXXXXXXXXXXXXXXXXXXX...     ",
"                      ...XXXXX.....XXXXXXXXXXXXXXXXXXXXXXXXXXXXXXXXXXXXX...     ",
"                      ...XXXXX.....XXXXXXXXXXXXXXXXXXXXXXXXXXXXXXXXXXXXX...     ",
"                      ...XXXXXXX...XXXXXXXXXXXXXXXXXXXXXXXXXXXXXXXXXXX.....     ",
"                      ...XXXXXXX...XXXXXXXXXXXXXXXXXXXXXXXXXXXXXXXXXXX.....     ",
"                      ...XXXXXXX...XXXXXXXXXXXXXXXXXXXXXXXXXXXXXXXXXXX.....     ",
"                         ..XXXXX...XXXXXXXXXXXXXXXXXXXXXXXXXXXXXXXXXXX.....     ",
"                         ..XXXXX...XXXXXXXXXXXXXXXXXXXXXXXXXXXXXXXXXXX.....     ",
"                         ..XXXXX.....XXXXXXXXXXXXXXXXXXXXXXXXXXXXXXXXXXX...     ",
"                         ..XXXXX.....XXXXXXXXXXXXXXXXXXXXXXXXXXXXXXXXXXX...     ",
"                         ..XXXXX.....XXXXXXXXXXXXXXXXXXXXXXXXXXXXXXXXXXX...     ",
"                           .....XXX.....XXXXXXXXXXXXXXX.....XXXXX..XXXXX.....   ",
"                           .....XXX.....XXXXXXXXXXXXXXX.....XXXXX..XXXXX.....   ",
"                              .....XX.....XXXXXXXXXXXXX..XXX..........XXXXX..   ",
"                              .....XX.....XXXXXXXXXXXXX..XXX..........XXXXX..   ",
"                              .....XX.....XXXXXXXXXXXXX..XXX..........XXXXX..   ",
"                              .....XX........XXXXXXXXXX..XXXXX...  .....XXXXX...",
"                              .....XX........XXXXXXXXXX..XXXXX...  .....XXXXX...",
"                              .......XXXXXXXXXXXXX...............     ..XXXXX...",
"                              .......XXXXXXXXXXXXX...............     ..XXXXX...",
"                              .......XXXXXXXXXXXXX...............     ..XXXXX...",
"                              ..XXXXXXXXXX..........                    .....   ",
"                              ..XXXXXXXXXX..........                    .....   ",
"                              ...............                                   ",
"                              ...............                                   ",
"                              ...............                                   ",
"                                                                                ",
"                                                                                ",
"                                                                                ",
"                                                                                ",
"                                                                                ",
"                                                                                ",
"                                                                                ",
"                                                                                ",
"                                                                                ",
"                                                                                "
};
