/* XPM */
static char *_[] = {
/* columns rows colors chars-per-pixel */
"80 80 3 1 ",
"  c None",
". c black",
"X c white",
/* pixels */
"                                                                                ",
"                                                                                ",
"                                                                                ",
"                                                                                ",
"                                                                                ",
"                    ....................                                        ",
"                    ....................                                        ",
"                 ...XXXXXXXXXX.....XX.....                                      ",
"                 ...XXXXXXXXXX.....XX.....                                      ",
"                 ...XXXXXXXXXX.....XX.....                                      ",
"               ..XXX.......XXXXXXXXXXXXXXX.............                         ",
"               ..XXX.......XXXXXXXXXXXXXXX.............                         ",
"            .....XXXXXXXXXXXXXXXXXX.....XXXXXXXXXXXX...                         ",
"            .....XXXXXXXXXXXXXXXXXX.....XXXXXXXXXXXX...                         ",
"            .....XXXXXXXXXXXXXXXXXX.....XXXXXXXXXXXX...                         ",
"       .....   ..XXXXXXXXXX........XX...XXXXXXXXXX..                            ",
"       .....   ..XXXXXXXXXX........XX...XXXXXXXXXX..                            ",
"               ..XXXXXXXXXX...XXXXXXX...XXXXXXXXXX..                            ",
"               ..XXXXXXXXXX...XXXXXXX...XXXXXXXXXX..                            ",
"               ..XXXXXXXXXX...XXXXXXX...XXXXXXXXXX..                            ",
"  ..........   ..XXXXXXXXXXXXXXXXXXXX...XXXXXXX...                              ",
"  ..........   ..XXXXXXXXXXXXXXXXXXXX...XXXXXXX...                              ",
"  ...XXXXX..........XXXXXXXXXXXXXXXXX...XXXXXXX...                              ",
"  ...XXXXX..........XXXXXXXXXXXXXXXXX...XXXXXXX...                              ",
"  ...XXXXX..........XXXXXXXXXXXXXXXXX...XXXXXXX...                              ",
"  .....XXXXXXXX.....XXXXXXXXXXXXXXXXXXXXXXXXX..XXX..                            ",
"  .....XXXXXXXX.....XXXXXXXXXXXXXXXXXXXXXXXXX..XXX..                            ",
"     .....XXXXXXX........XXXXXXXXXXXXXXXXXXXX..XXXXX...                         ",
"     .....XXXXXXX........XXXXXXXXXXXXXXXXXXXX..XXXXX...                         ",
"     .....XXXXXXX........XXXXXXXXXXXXXXXXXXXX..XXXXX...                         ",
"       .....XXXXXXXXXXXXXXXXXXXXXXXXXXXXXX...XXXXXXXXXX..     ........          ",
"       .....XXXXXXXXXXXXXXXXXXXXXXXXXXXXXX...XXXXXXXXXX..     ........          ",
"          .....XXXXXXXXXXXXXXX..XXX..XXX..XXXXXXXXXXXXXXX.....XXXXX...          ",
"          .....XXXXXXXXXXXXXXX..XXX..XXX..XXXXXXXXXXXXXXX.....XXXXX...          ",
"          .....XXXXXXXXXXXXXXX..XXX..XXX..XXXXXXXXXXXXXXX.....XXXXX...          ",
"               ..XXXXXXXXXXXXXXXXXXXXXXXXXXXXXXXXXXXXXXXXXXX..XXXXX...          ",
"               ..XXXXXXXXXXXXXXXXXXXXXXXXXXXXXXXXXXXXXXXXXXX..XXXXX...          ",
"                 .....XXXXXXXXXXXXXXXXXXXXXXXXXXXXXXXXXXX...XXXXX..             ",
"                 .....XXXXXXXXXXXXXXXXXXXXXXXXXXXXXXXXXXX...XXXXX..             ",
"                 .....XXXXXXXXXXXXXXXXXXXXXXXXXXXXXXXXXXX...XXXXX..             ",
"                      ...XXXXXXXXXXXXXXXXXXXXXXXXXXXXXXXX...XXXXX.....          ",
"                      ...XXXXXXXXXXXXXXXXXXXXXXXXXXXXXXXX...XXXXX.....          ",
"                         ..XXXXXXXXXXXXXXXXXXXXXXXXXXXX..XXXXX...XX...          ",
"                         ..XXXXXXXXXXXXXXXXXXXXXXXXXXXX..XXXXX...XX...          ",
"                         ..XXXXXXXXXXXXXXXXXXXXXXXXXXXX..XXXXX...XX...          ",
"                           ...XXXXXXXXXXXXXXXXXXXXXXXXXXXXXXXX...XXXXX.....     ",
"                           ...XXXXXXXXXXXXXXXXXXXXXXXXXXXXXXXX...XXXXX.....     ",
"                              ..XXXXXXXXXXXXXXXXXXXXXXXXXXXXXXXXXXXXXXXXXXX..   ",
"                              ..XXXXXXXXXXXXXXXXXXXXXXXXXXXXXXXXXXXXXXXXXXX..   ",
"                              ..XXXXXXXXXXXXXXXXXXXXXXXXXXXXXXXXXXXXXXXXXXX..   ",
"                              ..XXXXXXXXXXXXXXXXXXXX...XXXXXXXXXXXXXXXXXXXX..   ",
"                              ..XXXXXXXXXXXXXXXXXXXX...XXXXXXXXXXXXXXXXXXXX..   ",
"                              ..XXXXXXXXXXXXXXXXXXXXXXX..XXXXXXXXXXXXXXXXXX..   ",
"                              ..XXXXXXXXXXXXXXXXXXXXXXX..XXXXXXXXXXXXXXXXXX..   ",
"                              ..XXXXXXXXXXXXXXXXXXXXXXX..XXXXXXXXXXXXXXXXXX..   ",
"                              ..XXXXXXXXXXXXXXXXXXXXXXXXX...XXXXXXXXXXXXXXX..   ",
"                              ..XXXXXXXXXXXXXXXXXXXXXXXXX...XXXXXXXXXXXXXXX..   ",
"                                ...XXXXXXXXXXXXXXXXXXXXXX..........XXXXXXXXXX...",
"                                ...XXXXXXXXXXXXXXXXXXXXXX..........XXXXXXXXXX...",
"                                ...XXXXXXXXXXXXXXXXXXXXXX..........XXXXXXXXXX...",
"                                ...XXXXXXXXXXXXXXXXXXXXXX...       ...XXXXXXX...",
"                                ...XXXXXXXXXXXXXXXXXXXXXX...       ...XXXXXXX...",
"                                   ..XXXXXXXXXXXXXXXXXXXX...          ..XXXXX...",
"                                   ..XXXXXXXXXXXXXXXXXXXX...          ..XXXXX...",
"                                   ..XXXXXXXXXXXXXXXXXXXX...          ..XXXXX...",
"                                     .............XXXXXXX...          ..XXXXX...",
"                                     .............XXXXXXX...          ..XXXXX...",
"                                                  ..XXXXX...            ...XX...",
"                                                  ..XXXXX...            ...XX...",
"                                                  ..XXXXX...            ...XX...",
"                                                  ..XXXXX...               .....",
"                                                  ..XXXXX...               .....",
"                                                  ..XXXXX...                    ",
"                                                  ..XXXXX...                    ",
"                                                  ..XXXXX...                    ",
"                                                  ..XXXXX...                    ",
"                                                  ..XXXXX...                    ",
"                                                    .....                       ",
"                                                    .....                       ",
"                                                    .....                       "
};
