/* XPM */
static char *_[] = {
/* columns rows colors chars-per-pixel */
"80 80 3 1 ",
"  c None",
". c black",
"X c white",
/* pixels */
"                                                                                ",
"                                                                                ",
"                                                                                ",
"                                                                                ",
"                                                                                ",
"                                                                                ",
"                                                                                ",
"                              ..                  ..                            ",
"                              ..                  ..                            ",
"                              ..                  ..                            ",
"                           ...XX...            ...XX...                         ",
"                           ...XX...            ...XX...                         ",
"                           ...XXXXX..        ..XXXXX...                         ",
"                           ...XXXXX..        ..XXXXX...                         ",
"                           ...XXXXX..        ..XXXXX...                         ",
"                         ..XXXXXXXX..        ..XXXXXXXX..                       ",
"                         ..XXXXXXXX..        ..XXXXXXXX..                       ",
"                         ..XXXXXXXXXX...  ...XXXXXXXXXX..                       ",
"                         ..XXXXXXXXXX...  ...XXXXXXXXXX..                       ",
"                         ..XXXXXXXXXX...  ...XXXXXXXXXX..                       ",
"                      ...XXXXXXXXXXXX........XXXXXXXXXXXX...                    ",
"                      ...XXXXXXXXXXXX........XXXXXXXXXXXX...                    ",
"                      ...XXXXXXXXXXXXXXXXXXXXXXXXXXXXXXXX...                    ",
"                      ...XXXXXXXXXXXXXXXXXXXXXXXXXXXXXXXX...                    ",
"                      ...XXXXXXXXXXXXXXXXXXXXXXXXXXXXXXXX...                    ",
"                      ...XXXXXXX...XXXXXXXXXXXX...XXXXXXX...                    ",
"                      ...XXXXXXX...XXXXXXXXXXXX...XXXXXXX...                    ",
"                      ...XXXXXXX...XXXXXXXXXXXX...XXXXXXX...                    ",
"                      ...XXXXXXX...XXXXXXXXXXXX...XXXXXXX...                    ",
"                      ...XXXXXXX...XXXXXXXXXXXX...XXXXXXX...                    ",
"                      ...XXXXXXX...XXXXXXXXXXXX...XXXXXXX...                    ",
"                      ...XXXXXXX...XXXXXXXXXXXX...XXXXXXX...                    ",
"                      ...XXXXXXXXXXXXXXXXXXXXXXXXXXXXXXXX...                    ",
"                      ...XXXXXXXXXXXXXXXXXXXXXXXXXXXXXXXX...                    ",
"                      ...XXXXXXXXXXXXXXXXXXXXXXXXXXXXXXXX...                    ",
"                      ...XX........XXXXX..XXXXX........XX...                    ",
"                      ...XX........XXXXX..XXXXX........XX...                    ",
"                         ..XXXXXXXXXXXXXXXXXXXXXXXXXXXX..                       ",
"                         ..XXXXXXXXXXXXXXXXXXXXXXXXXXXX..                       ",
"                         ..XXXXXXXXXXXXXXXXXXXXXXXXXXXX..                       ",
"                           ...XXXXXXXXXXXXXXXXXXXXXX...                         ",
"                           ...XXXXXXXXXXXXXXXXXXXXXX...                         ",
"                              .......XXXXXXXX.......                            ",
"                              .......XXXXXXXX.......                            ",
"                              .......XXXXXXXX.......                            ",
"                                   ..XXXXXXXX..                                 ",
"                                   ..XXXXXXXX..                                 ",
"                                ...XXXXXXXXXXXX...                              ",
"                                ...XXXXXXXXXXXX...                              ",
"                                ...XXXXXXXXXXXX...                              ",
"                              ..XXXXXXXXXXXXXXXXXX..                            ",
"                              ..XXXXXXXXXXXXXXXXXX..                            ",
"                           ...XXXXXXXXXXXXXXXXXXXXXX...                         ",
"                           ...XXXXXXXXXXXXXXXXXXXXXX...                         ",
"                           ...XXXXXXXXXXXXXXXXXXXXXX...                         ",
"                    .....  ...XXXXXXXXXXXXXXXXXXXXXX...  .....                  ",
"                    .....  ...XXXXXXXXXXXXXXXXXXXXXX...  .....                  ",
"                 ...XXXXX.....XXXXXXXXXX..XXXXXXXXXX.....XXXXX...               ",
"                 ...XXXXX.....XXXXXXXXXX..XXXXXXXXXX.....XXXXX...               ",
"                 ...XXXXX.....XXXXXXXXXX..XXXXXXXXXX.....XXXXX...               ",
"               ..XXXXXXXXXX.....XXXXXXXX..XXXXXXXX.....XXXXXXXXXX..             ",
"               ..XXXXXXXXXX.....XXXXXXXX..XXXXXXXX.....XXXXXXXXXX..             ",
"               ..XXXXXXXXXXXXX..XXXXXXXX..XXXXXXXX..XXXXXXXXXXXXX..             ",
"               ..XXXXXXXXXXXXX..XXXXXXXX..XXXXXXXX..XXXXXXXXXXXXX..             ",
"               ..XXXXXXXXXXXXX..XXXXXXXX..XXXXXXXX..XXXXXXXXXXXXX..             ",
"               .......XXXXXXXX..XXXXXXXX..XXXXXXXX..XXXXXXXX.................   ",
"               .......XXXXXXXX..XXXXXXXX..XXXXXXXX..XXXXXXXX.................   ",
"            .....XXXXXXXXXXXXX..XXXXX........XXXXX..XXXXXXXXXXXXX..XXXXXXXXXX...",
"            .....XXXXXXXXXXXXX..XXXXX........XXXXX..XXXXXXXXXXXXX..XXXXXXXXXX...",
"            .....XXXXXXXXXXXXX..XXXXX........XXXXX..XXXXXXXXXXXXX..XXXXXXXXXX...",
"            ............................  ...................................   ",
"            ............................  ...................................   ",
"                                                                                ",
"                                                                                ",
"                                                                                ",
"                                                                                ",
"                                                                                ",
"                                                                                ",
"                                                                                ",
"                                                                                "
};
