/* XPM */
static char *_[] = {
/* columns rows colors chars-per-pixel */
"80 80 3 1 ",
"  c None",
". c black",
"X c white",
/* pixels */
"                                ........                                        ",
"                                ........                                        ",
"                                ...XXXXX......................                  ",
"                                ...XXXXX......................                  ",
"                                ...XXXXX......................                  ",
"                                ...XXXXXXX..........XXXXXXXXXX...               ",
"                                ...XXXXXXX..........XXXXXXXXXX...               ",
"                                ...XXXXXXXXXX..XXXXX...XX..........             ",
"                                ...XXXXXXXXXX..XXXXX...XX..........             ",
"                                ...XXXXXXXXXX..XXXXX...XX..........             ",
"                                ...XXXXXXXXXX..XXXXXXXX..XXXXXXXX.....  .....   ",
"                                ...XXXXXXXXXX..XXXXXXXX..XXXXXXXX.....  .....   ",
"                                ...XXXXXXXXXX..XXXXXXXXXX...XXXXXXX.....        ",
"                                ...XXXXXXXXXX..XXXXXXXXXX...XXXXXXX.....        ",
"                                ...XXXXXXXXXX..XXXXXXXXXX...XXXXXXX.....        ",
"                                ...XXXXXXXXXX..XXXXXXXXXXXXXXXXXXXX...          ",
"                                ...XXXXXXXXXX..XXXXXXXXXXXXXXXXXXXX...          ",
"                                ...XXXXXXXXXXXXXXXXXXXXXXXXXXXXXXXX...          ",
"                                ...XXXXXXXXXXXXXXXXXXXXXXXXXXXXXXXX...          ",
"                                ...XXXXXXXXXXXXXXXXXXXXXXXXXXXXXXXX...          ",
"                         ............XXXXXXXXXXXXXXXXXXXXXXXXXXXXXX...          ",
"                         ............XXXXXXXXXXXXXXXXXXXXXXXXXXXXXX...          ",
"                 ........XXXXXXXXXXXX...XXXXXXXXXXXXXXXXXXXXXXXXX..             ",
"                 ........XXXXXXXXXXXX...XXXXXXXXXXXXXXXXXXXXXXXXX..             ",
"                 ........XXXXXXXXXXXX...XXXXXXXXXXXXXXXXXXXXXXXXX..             ",
"               ..XXXXXXXXXXXXXXXXXXXXXXXXXXXXXXXXXXXXXXXXXXXXXXXX..             ",
"               ..XXXXXXXXXXXXXXXXXXXXXXXXXXXXXXXXXXXXXXXXXXXXXXXX..             ",
"            ...XXXXXXXXXXXXXXXXXXXXXXXXXXXXXXXXXXXXXXXXXXXXX.....               ",
"            ...XXXXXXXXXXXXXXXXXXXXXXXXXXXXXXXXXXXXXXXXXXXXX.....               ",
"            ...XXXXXXXXXXXXXXXXXXXXXXXXXXXXXXXXXXXXXXXXXXXXX.....               ",
"          ..XXXXXXXXXXXXXXXXXXXXXXXXXXXXXXXXXXXXXXXXXXXXX...                    ",
"          ..XXXXXXXXXXXXXXXXXXXXXXXXXXXXXXXXXXXXXXXXXXXXX...                    ",
"          ..XXXXXXXXXXXXXXXXXXXXXXXXXXXXXXXXXXXXXXXXXXXXX...                    ",
"          ..XXXXXXXXXXXXXXXXXXXXXXXXXXXXXXXXXXXXXXXXXXXXX...                    ",
"          ..XXXXXXXXXXXXXXXXXXXXXXXXXXXXXXXXXXXXXXXXXXXXX...                    ",
"       ...XXXXXXXXXXXXXXXXXXXXXXXXXXXXXXXXXXXXXXXXXXXXXXX...                    ",
"       ...XXXXXXXXXXXXXXXXXXXXXXXXXXXXXXXXXXXXXXXXXXXXXXX...                    ",
"     ..XXXXXXXXXXXXXXXXXXXXXXXXXXXXXXXXXXXXXXXXXXXXXXXXXX...                    ",
"     ..XXXXXXXXXXXXXXXXXXXXXXXXXXXXXXXXXXXXXXXXXXXXXXXXXX...                    ",
"     ..XXXXXXXXXXXXXXXXXXXXXXXXXXXXXXXXXXXXXXXXXXXXXXXXXX...                    ",
"     ..XXXXXXXXXXXXXXXXXXXXXXXXXXXXXXXXX.....XXXXXXXXXX.....                    ",
"     ..XXXXXXXXXXXXXXXXXXXXXXXXXXXXXXXXX.....XXXXXXXXXX.....                    ",
"     ..XXXXXXXXXXXXXXXXXXXXXXXXXXXXXXXXXXXXXX..XXXXXXXX..                       ",
"     ..XXXXXXXXXXXXXXXXXXXXXXXXXXXXXXXXXXXXXX..XXXXXXXX..                       ",
"     ..XXXXXXXXXXXXXXXXXXXXXXXXXXXXXXXXXXXXXX..XXXXXXXX..                       ",
"     ..XXXXXXXXXXXXXXXXXXXXXXXXXXXXXXXXXXXXXX.....XXXXX..                       ",
"     ..XXXXXXXXXXXXXXXXXXXXXXXXXXXXXXXXXXXXXX.....XXXXX..                       ",
"     .....XXXXXXXXXXXXXXXXXXXXXXXXXXXXXXXXXXX..XXXXXXXX..                       ",
"     .....XXXXXXXXXXXXXXXXXXXXXXXXXXXXXXXXXXX..XXXXXXXX..                       ",
"     .....XXXXXXXXXXXXXXXXXXXXXXXXXXXXXXXXXXX..XXXXXXXX..                       ",
"     .....XXXXXXXXXXXXXXXXXXXXXXXXXXXXXXXXXXX..XXXXX...                         ",
"     .....XXXXXXXXXXXXXXXXXXXXXXXXXXXXXXXXXXX..XXXXX...                         ",
"     ..XXXXXXXXXXXXXXXXXXXXXXXXXXXXXXXXXXX.....XXXXX...                         ",
"     ..XXXXXXXXXXXXXXXXXXXXXXXXXXXXXXXXXXX.....XXXXX...                         ",
"     ..XXXXXXXXXXXXXXXXXXXXXXXXXXXXXXXXXXX.....XXXXX...                         ",
"  .....XXXXX...XXXXX.....XXXXXXXXXXXXXXX.....XX.....                            ",
"  .....XXXXX...XXXXX.....XXXXXXXXXXXXXXX.....XX.....                            ",
"  ...XXXXX..........XX...XXXXXXXXXXXX.....XXXXX...                              ",
"  ...XXXXX..........XX...XXXXXXXXXXXX.....XXXXX...                              ",
"  ...XXXXX..........XX...XXXXXXXXXXXX.....XXXXX...                              ",
"..XXXXX.....   ..XXXXX...XXXXXXXXXX.......XXX.....                              ",
"..XXXXX.....   ..XXXXX...XXXXXXXXXX.......XXX.....                              ",
"..XXXXX...     ...............XXXXXXXXXXXX........                              ",
"..XXXXX...     ...............XXXXXXXXXXXX........                              ",
"..XXXXX...     ...............XXXXXXXXXXXX........                              ",
"  .....                    ..........XXXXXXXXXX...                              ",
"  .....                    ..........XXXXXXXXXX...                              ",
"                                   ...............                              ",
"                                   ...............                              ",
"                                   ...............                              ",
"                                                                                ",
"                                                                                ",
"                                                                                ",
"                                                                                ",
"                                                                                ",
"                                                                                ",
"                                                                                ",
"                                                                                ",
"                                                                                ",
"                                                                                "
};
