/* XPM */
static char *_[] = {
/* columns rows colors chars-per-pixel */
"80 80 3 1 ",
"  c None",
". c black",
"X c white",
/* pixels */
"                                                                                ",
"                                                                                ",
"                                                                                ",
"                                                                                ",
"                                                                                ",
"                                        ....................                    ",
"                                        ....................                    ",
"                                     .....XXX.....XXXXXXXXXX..                  ",
"                                     .....XXX.....XXXXXXXXXX..                  ",
"                                     .....XXX.....XXXXXXXXXX..                  ",
"                         ............XXXXXXXXXXXXXXX........XX...               ",
"                         ............XXXXXXXXXXXXXXX........XX...               ",
"                         ..XXXXXXXXXXXXX.....XXXXXXXXXXXXXXXXX.....             ",
"                         ..XXXXXXXXXXXXX.....XXXXXXXXXXXXXXXXX.....             ",
"                         ..XXXXXXXXXXXXX.....XXXXXXXXXXXXXXXXX.....             ",
"                           ...XXXXXXXXXX..XXX.......XXXXXXXXXX...  .....        ",
"                           ...XXXXXXXXXX..XXX.......XXXXXXXXXX...  .....        ",
"                           ...XXXXXXXXXX..XXXXXXXX..XXXXXXXXXX...               ",
"                           ...XXXXXXXXXX..XXXXXXXX..XXXXXXXXXX...               ",
"                           ...XXXXXXXXXX..XXXXXXXX..XXXXXXXXXX...               ",
"                              ..XXXXXXXX..XXXXXXXXXXXXXXXXXXXX...  ..........   ",
"                              ..XXXXXXXX..XXXXXXXXXXXXXXXXXXXX...  ..........   ",
"                              ..XXXXXXXX..XXXXXXXXXXXXXXXXXX..........XXXXX..   ",
"                              ..XXXXXXXX..XXXXXXXXXXXXXXXXXX..........XXXXX..   ",
"                              ..XXXXXXXX..XXXXXXXXXXXXXXXXXX..........XXXXX..   ",
"                           ...XX...XXXXXXXXXXXXXXXXXXXXXXXXX.....XXXXXXX.....   ",
"                           ...XX...XXXXXXXXXXXXXXXXXXXXXXXXX.....XXXXXXX.....   ",
"                         ..XXXXX...XXXXXXXXXXXXXXXXXXXX.......XXXXXXXX.....     ",
"                         ..XXXXX...XXXXXXXXXXXXXXXXXXXX.......XXXXXXXX.....     ",
"                         ..XXXXX...XXXXXXXXXXXXXXXXXXXX.......XXXXXXXX.....     ",
"          .......     ...XXXXXXXXXX..XXXXXXXXXXXXXXXXXXXXXXXXXXXXXX.....        ",
"          .......     ...XXXXXXXXXX..XXXXXXXXXXXXXXXXXXXXXXXXXXXXXX.....        ",
"          ..XXXXX.....XXXXXXXXXXXXXXX...XX...XX...XXXXXXXXXXXXXXX.....          ",
"          ..XXXXX.....XXXXXXXXXXXXXXX...XX...XX...XXXXXXXXXXXXXXX.....          ",
"          ..XXXXX.....XXXXXXXXXXXXXXX...XX...XX...XXXXXXXXXXXXXXX.....          ",
"          ..XXXXX...XXXXXXXXXXXXXXXXXXXXXXXXXXXXXXXXXXXXXXXXXX...               ",
"          ..XXXXX...XXXXXXXXXXXXXXXXXXXXXXXXXXXXXXXXXXXXXXXXXX...               ",
"            ...XXXXX..XXXXXXXXXXXXXXXXXXXXXXXXXXXXXXXXXXX.....                  ",
"            ...XXXXX..XXXXXXXXXXXXXXXXXXXXXXXXXXXXXXXXXXX.....                  ",
"            ...XXXXX..XXXXXXXXXXXXXXXXXXXXXXXXXXXXXXXXXXX.....                  ",
"          .....XXXXX..XXXXXXXXXXXXXXXXXXXXXXXXXXXXXXXXX..                       ",
"          .....XXXXX..XXXXXXXXXXXXXXXXXXXXXXXXXXXXXXXXX..                       ",
"          ..XXX..XXXXX...XXXXXXXXXXXXXXXXXXXXXXXXXXX...                         ",
"          ..XXX..XXXXX...XXXXXXXXXXXXXXXXXXXXXXXXXXX...                         ",
"          ..XXX..XXXXX...XXXXXXXXXXXXXXXXXXXXXXXXXXX...                         ",
"     .....XXXXX..XXXXXXXXXXXXXXXXXXXXXXXXXXXXXXXXX..                            ",
"     .....XXXXX..XXXXXXXXXXXXXXXXXXXXXXXXXXXXXXXXX..                            ",
"  ...XXXXXXXXXXXXXXXXXXXXXXXXXXXXXXXXXXXXXXXXXX...                              ",
"  ...XXXXXXXXXXXXXXXXXXXXXXXXXXXXXXXXXXXXXXXXXX...                              ",
"  ...XXXXXXXXXXXXXXXXXXXXXXXXXXXXXXXXXXXXXXXXXX...                              ",
"  ...XXXXXXXXXXXXXXXXXXXX..XXXXXXXXXXXXXXXXXXXX...                              ",
"  ...XXXXXXXXXXXXXXXXXXXX..XXXXXXXXXXXXXXXXXXXX...                              ",
"  ...XXXXXXXXXXXXXXXXX...XXXXXXXXXXXXXXXXXXXXXX...                              ",
"  ...XXXXXXXXXXXXXXXXX...XXXXXXXXXXXXXXXXXXXXXX...                              ",
"  ...XXXXXXXXXXXXXXXXX...XXXXXXXXXXXXXXXXXXXXXX...                              ",
"  ...XXXXXXXXXXXXXXX..XXXXXXXXXXXXXXXXXXXXXXXXX...                              ",
"  ...XXXXXXXXXXXXXXX..XXXXXXXXXXXXXXXXXXXXXXXXX...                              ",
"..XXXXXXXXXX..........XXXXXXXXXXXXXXXXXXXXXXX..                                 ",
"..XXXXXXXXXX..........XXXXXXXXXXXXXXXXXXXXXXX..                                 ",
"..XXXXXXXXXX..........XXXXXXXXXXXXXXXXXXXXXXX..                                 ",
"..XXXXXXXX..        ..XXXXXXXXXXXXXXXXXXXXXXX..                                 ",
"..XXXXXXXX..        ..XXXXXXXXXXXXXXXXXXXXXXX..                                 ",
"..XXXXX...          ..XXXXXXXXXXXXXXXXXXXX...                                   ",
"..XXXXX...          ..XXXXXXXXXXXXXXXXXXXX...                                   ",
"..XXXXX...          ..XXXXXXXXXXXXXXXXXXXX...                                   ",
"..XXXXX...          ..XXXXXXXX............                                      ",
"..XXXXX...          ..XXXXXXXX............                                      ",
"..XXX..             ..XXXXX...                                                  ",
"..XXX..             ..XXXXX...                                                  ",
"..XXX..             ..XXXXX...                                                  ",
".....               ..XXXXX...                                                  ",
".....               ..XXXXX...                                                  ",
"                    ..XXXXX...                                                  ",
"                    ..XXXXX...                                                  ",
"                    ..XXXXX...                                                  ",
"                    ..XXXXX...                                                  ",
"                    ..XXXXX...                                                  ",
"                      .....                                                     ",
"                      .....                                                     ",
"                      .....                                                     "
};
