/* XPM */
static char *_[] = {
/* columns rows colors chars-per-pixel */
"80 80 3 1 ",
"  c None",
". c black",
"X c white",
/* pixels */
"                                                                                ",
"                                                                                ",
"                                                                                ",
"                                                                                ",
"                                                                                ",
"                                                                                ",
"                                                                                ",
"                                                                                ",
"                                                                                ",
"                                                                                ",
"                                                                                ",
"                                                                                ",
"                                                                                ",
"                                                                                ",
"                                                                                ",
"               .................        ...............                         ",
"               .................        ...............                         ",
"                           ...                 ...                              ",
"                           ...                 ...                              ",
"                           ...                 ...                              ",
"                         ..                  ..                                 ",
"                         ..                  ..                                 ",
"                    .......               ...                                   ",
"                    .......               ...                                   ",
"                    .......               ...                                   ",
"                      ...               ...............                         ",
"                      ...               ...............                         ",
"                    ..             .......                                      ",
"                    ..             .......                                      ",
"                    ..             .......                                      ",
"                 ...                 ...                    ..                  ",
"                 ...                 ...                    ..                  ",
"               .................   .......               ...XX...               ",
"               .................   .......               ...XX...               ",
"               .................   .......               ...XX...               ",
"                                        ..             ..XXXXX...               ",
"                                        ..             ..XXXXX...               ",
"                                     ...XX...       ...XXXXXXX...               ",
"                                     ...XX...       ...XXXXXXX...               ",
"                                     ...XX...       ...XXXXXXX...               ",
"                                   ..XXXXX.............XXXXXXX.....             ",
"                                   ..XXXXX.............XXXXXXX.....             ",
"                           ........XXXXXXXXXX..XXX..XXXXXXXXXX...XX...          ",
"                           ........XXXXXXXXXX..XXX..XXXXXXXXXX...XX...          ",
"                           ........XXXXXXXXXX..XXX..XXXXXXXXXX...XX...          ",
"                      .....XXXXX...XXXXXXXXXXXX.....XXXXXXXXXXXXX..XXX..        ",
"                      .....XXXXX...XXXXXXXXXXXX.....XXXXXXXXXXXXX..XXX..        ",
"                    ..XXXXXXXX..XXXXXXXXXXXXXXXXXXXXXXXXXXXXXXXXXXX.....        ",
"                    ..XXXXXXXX..XXXXXXXXXXXXXXXXXXXXXXXXXXXXXXXXXXX.....        ",
"                    ..XXXXXXXX..XXXXXXXXXXXXXXXXXXXXXXXXXXXXXXXXXXX.....        ",
"                    ..XXXXXXXX..XXXXXXXXXXXXXXXXXXXXXXXXXXXXXXXXXXX.....        ",
"                    ..XXXXXXXX..XXXXXXXXXXXXXXXXXXXXXXXXXXXXXXXXXXX.....        ",
"                 ...XXXXXXXXXX..XXXXXXXXXXXXXXXXXXXXXXXXXXXXXXXXXXX........     ",
"                 ...XXXXXXXXXX..XXXXXXXXXXXXXXXXXXXXXXXXXXXXXXXXXXX........     ",
"                 ...XXXXXXXXXX..XXXXXXXXXXXXXXXXXXXXXXXXXXXXXXXXXXX........     ",
"               ..XXXXXXXXXXXXX..XXXXXXXXXXXXXXXXXXXXXXXXXXXXXXXXX.....XX...     ",
"               ..XXXXXXXXXXXXX..XXXXXXXXXXXXXXXXXXXXXXXXXXXXXXXXX.....XX...     ",
"               ..XXXXXXXXXXXXXXX...XX.....XXXXXXXXXXXXXXXXXX.....XX...XX...     ",
"               ..XXXXXXXXXXXXXXX...XX.....XXXXXXXXXXXXXXXXXX.....XX...XX...     ",
"               ..XXXXXXXXXXXXXXX...XX.....XXXXXXXXXXXXXXXXXX.....XX...XX...     ",
"               ..XXXXXXXXXXXXXXX...XXXXXXX........XXXXXXX...XXXXXXX...XX.....   ",
"               ..XXXXXXXXXXXXXXX...XXXXXXX........XXXXXXX...XXXXXXX...XX.....   ",
"               ..XXXXXXXXXXXXXXXXXX..XXXXXXXXXXXXX..XXXXXXXXXXXXX..XXX..XXX..   ",
"               ..XXXXXXXXXXXXXXXXXX..XXXXXXXXXXXXX..XXXXXXXXXXXXX..XXX..XXX..   ",
"               ..XXXXXXXXXXXXXXXXXX..XXXXXXXXXXXXX..XXXXXXXXXXXXX..XXX..XXX..   ",
"               ..XXXXXXXXXXXXXXXXXXXX...XXXXXXXXXXXXXXX..XXX.....XX.....XXX..   ",
"               ..XXXXXXXXXXXXXXXXXXXX...XXXXXXXXXXXXXXX..XXX.....XX.....XXX..   ",
"                 ...XXXXXXXXXXXXXXXXXXXX....................XXXXX.....XXXXX..   ",
"                 ...XXXXXXXXXXXXXXXXXXXX....................XXXXX.....XXXXX..   ",
"                 ...XXXXXXXXXXXXXXXXXXXX....................XXXXX.....XXXXX..   ",
"                    ...............XXXXXXXXXXXXXXX..........XXXXX..XXXXX.....   ",
"                    ...............XXXXXXXXXXXXXXX..........XXXXX..XXXXX.....   ",
"                                ....................     ..................     ",
"                                ....................     ..................     ",
"                                ....................     ..................     ",
"                                                                                ",
"                                                                                ",
"                                                                                ",
"                                                                                ",
"                                                                                "
};
