/* XPM */
static char *_[] = {
/* columns rows colors chars-per-pixel */
"80 80 3 1 ",
"  c None",
". c black",
"X c white",
/* pixels */
"                                                                                ",
"                                                                                ",
"                                                  ....................          ",
"                                                  ....................          ",
"                                                  ....................          ",
"                                                                 ..             ",
"                                                                 ..             ",
"                                                              ...               ",
"                                                              ...               ",
"                                                              ...               ",
"          ...........................                       ..                  ",
"          ...........................                       ..                  ",
"                                ...                      ...                    ",
"                                ...                      ...                    ",
"                                ...                      ...                    ",
"                              ..                       ..                       ",
"                              ..                       ..                       ",
"                           ...                      ...                         ",
"                           ...                      ...                         ",
"                           ...                      ...                         ",
"                         ..                       ....................          ",
"                         ..                       ....................          ",
"                    .....                                                       ",
"                    .....                                                       ",
"                    .....                                                       ",
"                 ...                                                            ",
"                 ...                                                            ",
"               ..                                                               ",
"               ..                                                               ",
"               ..                                                               ",
"          ...........................                    .....                  ",
"          ...........................                    .....                  ",
"                                                       ..XXX..                  ",
"                                                       ..XXX..                  ",
"                                                       ..XXX..                  ",
"                                     ...            .....XXX..                  ",
"                                     ...            .....XXX..                  ",
"                                   .......          ...XXXXXXX...               ",
"                                   .......          ...XXXXXXX...               ",
"                                   .......          ...XXXXXXX...               ",
"                           ..........XXX...............XXXXXXX.....             ",
"                           ..........XXX...............XXXXXXX.....             ",
"                      .....XXXXX...XXXXXXX...XXXXX..XXXXXXXXXX...XX...          ",
"                      .....XXXXX...XXXXXXX...XXXXX..XXXXXXXXXX...XX...          ",
"                      .....XXXXX...XXXXXXX...XXXXX..XXXXXXXXXX...XX...          ",
"                    ..XXXXXXXXXX...XXXXXXXXXX.....XXXXXXXXXXXXXXX..XXX..        ",
"                    ..XXXXXXXXXX...XXXXXXXXXX.....XXXXXXXXXXXXXXX..XXX..        ",
"                 ...XXXXXXXXXX..XXXXXXXXXXXXXXXXXXXXXXXXXXXXXXXXXXX.....        ",
"                 ...XXXXXXXXXX..XXXXXXXXXXXXXXXXXXXXXXXXXXXXXXXXXXX.....        ",
"                 ...XXXXXXXXXX..XXXXXXXXXXXXXXXXXXXXXXXXXXXXXXXXXXX.....        ",
"                 ...XXXXXXXXXX..XXXXXXXXXXXXXXXXXXXXXXXXXXXXXXXXXXX.....        ",
"                 ...XXXXXXXXXX..XXXXXXXXXXXXXXXXXXXXXXXXXXXXXXXXXXX.....        ",
"                 ...XXXXXXXXXX..XXXXXXXXXXXXXXXXXXXXXXXXXXXXXXXXXXX........     ",
"                 ...XXXXXXXXXX..XXXXXXXXXXXXXXXXXXXXXXXXXXXXXXXXXXX........     ",
"                 ...XXXXXXXXXX..XXXXXXXXXXXXXXXXXXXXXXXXXXXXXXXXXXX........     ",
"               ..XXXXXXXXXXXXX..XXXXXXXXXXXXXXXXXXXXXXXXXXXXXX...XX...XX...     ",
"               ..XXXXXXXXXXXXX..XXXXXXXXXXXXXXXXXXXXXXXXXXXXXX...XX...XX...     ",
"               ..XXXXXXXXXXXXXXX...XX........XXXXXXXXXXXXXXX..XXXXX...XX...     ",
"               ..XXXXXXXXXXXXXXX...XX........XXXXXXXXXXXXXXX..XXXXX...XX...     ",
"               ..XXXXXXXXXXXXXXX...XX........XXXXXXXXXXXXXXX..XXXXX...XX...     ",
"               ..XXXXXXXXXXXXXXX...XXXXXXXXXX.....XXXXXXX...XXXXXXX...XX.....   ",
"               ..XXXXXXXXXXXXXXX...XXXXXXXXXX.....XXXXXXX...XXXXXXX...XX.....   ",
"               ..XXXXXXXXXXXXXXXXXX..XXXXXXXXXXXXX..XXXXXXXXXXXXX..XXX..XXX..   ",
"               ..XXXXXXXXXXXXXXXXXX..XXXXXXXXXXXXX..XXXXXXXXXXXXX..XXX..XXX..   ",
"               ..XXXXXXXXXXXXXXXXXX..XXXXXXXXXXXXX..XXXXXXXXXXXXX..XXX..XXX..   ",
"               ..XXXXXXXXXXXXXXXXXXXX...XXXXXXXXXXXXXXX..XXX.....XX.....XXX..   ",
"               ..XXXXXXXXXXXXXXXXXXXX...XXXXXXXXXXXXXXX..XXX.....XX.....XXX..   ",
"                 ...XXXXXXXXXXXXXXXXXXXX....................XXXXX.....XXXXX..   ",
"                 ...XXXXXXXXXXXXXXXXXXXX....................XXXXX.....XXXXX..   ",
"                 ...XXXXXXXXXXXXXXXXXXXX....................XXXXX.....XXXXX..   ",
"                    ...............XXXXXXXXXXXXXXX..........XXXXX..XXXXX.....   ",
"                    ...............XXXXXXXXXXXXXXX..........XXXXX..XXXXX.....   ",
"                                ....................     ..................     ",
"                                ....................     ..................     ",
"                                ....................     ..................     ",
"                                                                                ",
"                                                                                ",
"                                                                                ",
"                                                                                ",
"                                                                                "
};
