/* XPM */
static char *_[] = {
/* columns rows colors chars-per-pixel */
"80 80 3 1 ",
"  c None",
". c black",
"X c white",
/* pixels */
"                                     .....                                      ",
"                                     .....                                      ",
"                                   ..XXXXX...                                   ",
"                                   ..XXXXX...                                   ",
"                                   ..XXXXX...                                   ",
"                                   ..XXXXX...                                   ",
"                                   ..XXXXX...                                   ",
"                                   ..XXXXX...                                   ",
"                                   ..XXXXX...                                   ",
"                                   ..XXXXX...                                   ",
"                                   ..XXXXX...                                   ",
"                                   ..XXXXX...                                   ",
"                                   ..XXXXX...                                   ",
"                                   ..XXXXX...                                   ",
"                                   ..XXXXX...                                   ",
"                           ..........XXXXX..........                            ",
"                           ..........XXXXX..........                            ",
"                         ..XXXXXXXXXXXXXXXXXXXXXXXXX...                         ",
"                         ..XXXXXXXXXXXXXXXXXXXXXXXXX...                         ",
"                         ..XXXXXXXXXXXXXXXXXXXXXXXXX...                         ",
"                      ...XXXXXXXXXXXXXXXXXXXXXXXXXXXXXX..                       ",
"                      ...XXXXXXXXXXXXXXXXXXXXXXXXXXXXXX..                       ",
"                    ..XXXXXXXXXXXXXXXXXXXXXXXXXXXXXXXXXXX...                    ",
"                    ..XXXXXXXXXXXXXXXXXXXXXXXXXXXXXXXXXXX...                    ",
"                    ..XXXXXXXXXXXXXXXXXXXXXXXXXXXXXXXXXXX...                    ",
"                 ...XXXXXXXXXXXXXXXXXXXXXXXXXXXXXXXXXXXXXXXX..                  ",
"                 ...XXXXXXXXXXXXXXXXXXXXXXXXXXXXXXXXXXXXXXXX..                  ",
"                 ...XXXXXXXXXX..XXXXXXXXXXXXXXXXXX..XXXXXXXXXX...               ",
"                 ...XXXXXXXXXX..XXXXXXXXXXXXXXXXXX..XXXXXXXXXX...               ",
"                 ...XXXXXXXXXX..XXXXXXXXXXXXXXXXXX..XXXXXXXXXX...               ",
"                 ...XXXXXXX...XX...XXXXXXXXXXXX...XX...XXXXXXX...               ",
"                 ...XXXXXXX...XX...XXXXXXXXXXXX...XX...XXXXXXX...               ",
"               ..XXXXXXXXXX...XXXXX..XXXXXXXX..XXXXX...XXXXXXXXXX..             ",
"               ..XXXXXXXXXX...XXXXX..XXXXXXXX..XXXXX...XXXXXXXXXX..             ",
"               ..XXXXXXXXXX...XXXXX..XXXXXXXX..XXXXX...XXXXXXXXXX..             ",
"               ..XXXXXXXX..XXXXXXXX..XXXXXXXX..XXXXXXXX..XXXXXXXX..             ",
"               ..XXXXXXXX..XXXXXXXX..XXXXXXXX..XXXXXXXX..XXXXXXXX..             ",
"               ..XXXXXXXX..XXXXXXXXXX...XX...XXXXXXXXXX..XXXXXXXX..             ",
"               ..XXXXXXXX..XXXXXXXXXX...XX...XXXXXXXXXX..XXXXXXXX..             ",
"               ..XXXXXXXX..XXXXXXXXXX...XX...XXXXXXXXXX..XXXXXXXX..             ",
"               ..XXXXX...XXXXXXXXXXXX........XXXXXXXXXXXX...XXXXX..             ",
"               ..XXXXX...XXXXXXXXXXXX........XXXXXXXXXXXX...XXXXX..             ",
"               ..XXXXX...XXXXXXXXXXXXXXXXXXXXXXXXXXXXXXXX...XXXXX..             ",
"               ..XXXXX...XXXXXXXXXXXXXXXXXXXXXXXXXXXXXXXX...XXXXX..             ",
"               ..XXXXX...XXXXXXXXXXXXXXXXXXXXXXXXXXXXXXXX...XXXXX..             ",
"            .....XXXXX...XXXXXXXXXXXXXXXXXXXXXXXXXXXXXXXX...XXXXX.....          ",
"            .....XXXXX...XXXXXXXXXXXXXXXXXXXXXXXXXXXXXXXX...XXXXX.....          ",
"               .....XX...XXXXXXXXXXXXXXXXXXXXXXXXXXXXXXXX...XX.....             ",
"               .....XX...XXXXXXXXXXXXXXXXXXXXXXXXXXXXXXXX...XX.....             ",
"               .....XX...XXXXXXXXXXXXXXXXXXXXXXXXXXXXXXXX...XX.....             ",
"            ...XXXXX.....XXXXXXX...XXXXXXXXXXXX...XXXXXXX.....XXXXX...          ",
"            ...XXXXX.....XXXXXXX...XXXXXXXXXXXX...XXXXXXX.....XXXXX...          ",
"            ...XX........XXXXXXX...XXXXXXXXXXXX...XXXXXXX........XX...          ",
"            ...XX........XXXXXXX...XXXXXXXXXXXX...XXXXXXX........XX...          ",
"            ...XX........XXXXXXX...XXXXXXXXXXXX...XXXXXXX........XX...          ",
"            ........XX...XXXXXXX...XXXXXXXXXXXX...XXXXXXX...XX........          ",
"            ........XX...XXXXXXX...XXXXXXXXXXXX...XXXXXXX...XX........          ",
"                 ...XXXXX..XXXXXXXXXXXXX..XXXXXXXXXXXXX..XXXXX...               ",
"                 ...XXXXX..XXXXXXXXXXXXX..XXXXXXXXXXXXX..XXXXX...               ",
"                 ...XXXXX..XXXXXXXXXXXXX..XXXXXXXXXXXXX..XXXXX...               ",
"                    ..........XXXXXXXXXXXXXXXXXXXXXX..........                  ",
"                    ..........XXXXXXXXXXXXXXXXXXXXXX..........                  ",
"                         ............XXXXXXXX............                       ",
"                         ............XXXXXXXX............                       ",
"                         ............XXXXXXXX............                       ",
"                                   ............                                 ",
"                                   ............                                 ",
"                                                                                ",
"                                                                                ",
"                                                                                ",
"                                                                                ",
"                                                                                ",
"                                                                                ",
"                                                                                ",
"                                                                                ",
"                                                                                ",
"                                                                                ",
"                                                                                ",
"                                                                                ",
"                                                                                "
};
