/* XPM */
static char *_[] = {
/* columns rows colors chars-per-pixel */
"80 80 3 1 ",
"  c None",
". c black",
"X c white",
/* pixels */
"                         .....       .....          .....                       ",
"                         .....       .....          .....                       ",
"                      ...XX.....   ..XXXXX...     .....XX...                    ",
"                      ...XX.....   ..XXXXX...     .....XX...                    ",
"                      ...XX.....   ..XXXXX...     .....XX...                    ",
"                      ...XXXXX..   ..XXXXX...     ..XXXXX...                    ",
"                      ...XXXXX..   ..XXXXX...     ..XXXXX...                    ",
"                      ...XXXXX..   ..XXXXX...     ..XXXXX...                    ",
"                      ...XXXXX..   ..XXXXX...     ..XXXXX...                    ",
"                      ...XXXXX..   ..XXXXX...     ..XXXXX...                    ",
"                    ..XXXXXXXXXX.....XXXXX...  ...XXXXXXXXXX..                  ",
"                    ..XXXXXXXXXX.....XXXXX...  ...XXXXXXXXXX..                  ",
"                    ..XXXXXXXXXX.....XXXXX.....XXXXXXXXXXXXX..                  ",
"                    ..XXXXXXXXXX.....XXXXX.....XXXXXXXXXXXXX..                  ",
"                    ..XXXXXXXXXX.....XXXXX.....XXXXXXXXXXXXX..                  ",
"                    ..XXXXXXXXXXXXXXXXXXXXXXXXXXXXXXXXXXXXXX..                  ",
"                    ..XXXXXXXXXXXXXXXXXXXXXXXXXXXXXXXXXXXXXX..                  ",
"                    ..XXXXXXXXXXXXXXXXXXXXXXXXXXXXXXXXXXXXXX..                  ",
"                    ..XXXXXXXXXXXXXXXXXXXXXXXXXXXXXXXXXXXXXX..                  ",
"                    ..XXXXXXXXXXXXXXXXXXXXXXXXXXXXXXXXXXXXXX..                  ",
"                    ..XXXXXXXXXXXXXXXXXXXXXXXXXXXXXXXXXXXXXX..                  ",
"                    ..XXXXXXXXXXXXXXXXXXXXXXXXXXXXXXXXXXXXXX..                  ",
"                    ..XXXXXXXXXXXXXXXXXXXXXXXXXXXXXXXXXXXXXX..                  ",
"                    ..XXXXXXXXXXXXXXXXXXXXXXXXXXXXXXXXXXXXXX..                  ",
"                    ..XXXXXXXXXXXXXXXXXXXXXXXXXXXXXXXXXXXXXX..                  ",
"                      ...XXXXXXXXXXXXXXXXXXXXXXXXXXXXXXXX...                    ",
"                      ...XXXXXXXXXXXXXXXXXXXXXXXXXXXXXXXX...                    ",
"                      ...XXXXX..XXXXXXXXXXXXXXXXXX..XXXXX...                    ",
"                      ...XXXXX..XXXXXXXXXXXXXXXXXX..XXXXX...                    ",
"                      ...XXXXX..XXXXXXXXXXXXXXXXXX..XXXXX...                    ",
"                    ..XXXXX...XX...XXXXXXXXXXXX...XX...XXXXX..                  ",
"                    ..XXXXX...XX...XXXXXXXXXXXX...XX...XXXXX..                  ",
"                    ..XXXXX...XXXXX..XXXXXXXX..XXXXX...XXXXX..                  ",
"                    ..XXXXX...XXXXX..XXXXXXXX..XXXXX...XXXXX..                  ",
"                    ..XXXXX...XXXXX..XXXXXXXX..XXXXX...XXXXX..                  ",
"                    ..XXX..XXXXXXXX..XXXXXXXX..XXXXXXXX..XXX..                  ",
"                    ..XXX..XXXXXXXX..XXXXXXXX..XXXXXXXX..XXX..                  ",
"                    ..XXX..XXXXXXXXXX...XX...XXXXXXXXXX..XXX..                  ",
"                    ..XXX..XXXXXXXXXX...XX...XXXXXXXXXX..XXX..                  ",
"                    ..XXX..XXXXXXXXXX...XX...XXXXXXXXXX..XXX..                  ",
"                    .....XXXXXXXXXXXX........XXXXXXXXXXXX.....                  ",
"                    .....XXXXXXXXXXXX........XXXXXXXXXXXX.....                  ",
"                    .....XXXXXXXXXXXXXXXXXXXXXXXXXXXXXXXX.....                  ",
"                    .....XXXXXXXXXXXXXXXXXXXXXXXXXXXXXXXX.....                  ",
"                    .....XXXXXXXXXXXXXXXXXXXXXXXXXXXXXXXX.....                  ",
"            .....   .....XXXXXXXXXXXXXXXXXXXXXXXXXXXXXXXX.....   .....          ",
"            .....   .....XXXXXXXXXXXXXXXXXXXXXXXXXXXXXXXX.....   .....          ",
"                 ........XXXXXXXXXXXXXXXXXXXXXXXXXXXXXXXX........               ",
"                 ........XXXXXXXXXXXXXXXXXXXXXXXXXXXXXXXX........               ",
"                 ........XXXXXXXXXXXXXXXXXXXXXXXXXXXXXXXX........               ",
"                    .....XXXXXXX...XXXXXXXXXXXX...XXXXXXX.....                  ",
"                    .....XXXXXXX...XXXXXXXXXXXX...XXXXXXX.....                  ",
"                    .....XXXXXXX...XXXXXXXXXXXX...XXXXXXX.....                  ",
"                    .....XXXXXXX...XXXXXXXXXXXX...XXXXXXX.....                  ",
"                    .....XXXXXXX...XXXXXXXXXXXX...XXXXXXX.....                  ",
"                      ...XXXXXXX...XXXXXXXXXXXX...XXXXXXX...                    ",
"                      ...XXXXXXX...XXXXXXXXXXXX...XXXXXXX...                    ",
"                      .....XXXXXXXXXXXXX..XXXXXXXXXXXXX.....                    ",
"                      .....XXXXXXXXXXXXX..XXXXXXXXXXXXX.....                    ",
"                      .....XXXXXXXXXXXXX..XXXXXXXXXXXXX.....                    ",
"                      ...XX...XXXXXXXXXXXXXXXXXXXXXX...XX...                    ",
"                      ...XX...XXXXXXXXXXXXXXXXXXXXXX...XX...                    ",
"                      ...XXXXX.......XXXXXXXX.......XXXXX...                    ",
"                      ...XXXXX.......XXXXXXXX.......XXXXX...                    ",
"                      ...XXXXX.......XXXXXXXX.......XXXXX...                    ",
"                      ...XXXXXXXXXX............XXXXXXXXXX...                    ",
"                      ...XXXXXXXXXX............XXXXXXXXXX...                    ",
"                         ..XXXXX...            ...XXXXX..                       ",
"                         ..XXXXX...            ...XXXXX..                       ",
"                         ..XXXXX...            ...XXXXX..                       ",
"                         ..XXXXX...            ...XXXXX..                       ",
"                         ..XXXXX...            ...XXXXX..                       ",
"                         ..XXX.....            .....XXX..                       ",
"                         ..XXX.....            .....XXX..                       ",
"                         ..XXX.....            .....XXX..                       ",
"                           .....                  .....                         ",
"                           .....                  .....                         ",
"                                                                                ",
"                                                                                ",
"                                                                                "
};
