/* XPM */
static char *_[] = {
/* columns rows colors chars-per-pixel */
"80 80 3 1 ",
"  c None",
". c black",
"X c white",
/* pixels */
"                                                                                ",
"                                                                                ",
"                                                                                ",
"                                                                                ",
"                                                                                ",
"                                                    ........                    ",
"                                                    ........                    ",
"                                             .......XXXXXXXX.......             ",
"                                             .......XXXXXXXX.......             ",
"                                             .......XXXXXXXX.......             ",
"                                   ............XXXXXXXXXXXXXXXXXXXX...          ",
"                                   ............XXXXXXXXXXXXXXXXXXXX...          ",
"                                ...XXXXXXXXXXXXXXX.................             ",
"                                ...XXXXXXXXXXXXXXX.................             ",
"                                ...XXXXXXXXXXXXXXX.................             ",
"                              ..XXXXXXXXXXXXXXXXXXXXXXX.....                    ",
"                              ..XXXXXXXXXXXXXXXXXXXXXXX.....                    ",
"                           ...XXXXXXXXXXXXXXXXXXXXXXXXXXXXXX.....               ",
"                           ...XXXXXXXXXXXXXXXXXXXXXXXXXXXXXX.....               ",
"                           ...XXXXXXXXXXXXXXXXXXXXXXXXXXXXXX.....               ",
"       .....        .......XXXXXXXXXXXXXXXXXXXXXXXXXXXXXXXXXXX.....             ",
"       .....        .......XXXXXXXXXXXXXXXXXXXXXXXXXXXXXXXXXXX.....             ",
"       ...XX...     ..XXX.....XXXXXXXXXXXXXXXXXXXXXXXXXXXXXXXXXXX..             ",
"       ...XX...     ..XXX.....XXXXXXXXXXXXXXXXXXXXXXXXXXXXXXXXXXX..             ",
"       ...XX...     ..XXX.....XXXXXXXXXXXXXXXXXXXXXXXXXXXXXXXXXXX..             ",
"       ...XXXXX..   ..XXXXX...XXXXXXXXXXXXXXXXXXXX..XXXXXXXXXXXXX..             ",
"       ...XXXXX..   ..XXXXX...XXXXXXXXXXXXXXXXXXXX..XXXXXXXXXXXXX..             ",
"       ...XXXXXXX.....XXXXXXXX..XXXXXXXXXXXXXXX...XXXXXXXXXXXXXXX..             ",
"       ...XXXXXXX.....XXXXXXXX..XXXXXXXXXXXXXXX...XXXXXXXXXXXXXXX..             ",
"       ...XXXXXXX.....XXXXXXXX..XXXXXXXXXXXXXXX...XXXXXXXXXXXXXXX..             ",
"       ...XXXXXXXXXXXXXXXXXXXXXX...XXXXXXXXXX..XXXXXXXXXXXXXXXXXX..             ",
"       ...XXXXXXXXXXXXXXXXXXXXXX...XXXXXXXXXX..XXXXXXXXXXXXXXXXXX..             ",
"       ...XXXXXXXXXXXXXXXXXXXXXXXXX..XXXXXXXX..XXXXXXXXXXXXXXXXXX..             ",
"       ...XXXXXXXXXXXXXXXXXXXXXXXXX..XXXXXXXX..XXXXXXXXXXXXXXXXXX..             ",
"       ...XXXXXXXXXXXXXXXXXXXXXXXXX..XXXXXXXX..XXXXXXXXXXXXXXXXXX..             ",
"       ...XXXXXXXXXXXXXXXXXXXXXXXXX..XXXXXXXX..XXXXXXXXXXXXXXX...               ",
"       ...XXXXXXXXXXXXXXXXXXXXXXXXX..XXXXXXXX..XXXXXXXXXXXXXXX...               ",
"     ..XXXXX...XXXXXXX...XXXXXXXXXX..XXXXXXXX..XXXXXXXXXXXXXXX...               ",
"     ..XXXXX...XXXXXXX...XXXXXXXXXX..XXXXXXXX..XXXXXXXXXXXXXXX...               ",
"     ..XXXXX...XXXXXXX...XXXXXXXXXX..XXXXXXXX..XXXXXXXXXXXXXXX...               ",
"     ..XXXXX...XXXXXXX...XXXXXXXXXX..XXXXXXXX..XXXXXXXXXXXXXXX...               ",
"     ..XXXXX...XXXXXXX...XXXXXXXXXX..XXXXXXXX..XXXXXXXXXXXXXXX...               ",
".......XXXXX...XXXXXXX...XXXXX..........XXXXXXX...XXXXXXXXXXXX...               ",
".......XXXXX...XXXXXXX...XXXXX..........XXXXXXX...XXXXXXXXXXXX...               ",
".......XXXXX...XXXXXXX...XXXXX..........XXXXXXX...XXXXXXXXXXXX...               ",
"     ..XXXXXXXXXXXXXXXXXXXXXXXXXXXXXXXXXXXXXXXX...XXXXXXXXXXXX...               ",
"     ..XXXXXXXXXXXXXXXXXXXXXXXXXXXXXXXXXXXXXXXX...XXXXXXXXXXXX...               ",
"     ..XXXXX...XXXXXXXXXXXXXXXXXXXXXXXXXXXXXXXX...XXXXXXXXXXXX...               ",
"     ..XXXXX...XXXXXXXXXXXXXXXXXXXXXXXXXXXXXXXX...XXXXXXXXXXXX...               ",
"     ..XXXXX...XXXXXXXXXXXXXXXXXXXXXXXXXXXXXXXX...XXXXXXXXXXXX...               ",
"     ..XXXXXXXXXXXXXXXXXXXXXXXXXXXXXXXXX..XXXXXXXX..XXXXXXXX..                  ",
"     ..XXXXXXXXXXXXXXXXXXXXXXXXXXXXXXXXX..XXXXXXXX..XXXXXXXX..                  ",
"       ...XX.....XXXXXXXXXXXXXXX...XXXXX..XXXXXXXX..XXXXX...                    ",
"       ...XX.....XXXXXXXXXXXXXXX...XXXXX..XXXXXXXX..XXXXX...                    ",
"       ...XX.....XXXXXXXXXXXXXXX...XXXXX..XXXXXXXX..XXXXX...                    ",
"          ......................XXXXXXXXXX...XX...XXXXXXX...                    ",
"          ......................XXXXXXXXXX...XX...XXXXXXX...                    ",
"                 ...XXXXXXXXXX..XXXXXXXXXX...XX...XXXXX..                       ",
"                 ...XXXXXXXXXX..XXXXXXXXXX...XX...XXXXX..                       ",
"                 ...XXXXXXXXXX..XXXXXXXXXX...XX...XXXXX..                       ",
"                    ..XXXXXXXXXX...XXXXXXXXXX.....XXXXX..                       ",
"                    ..XXXXXXXXXX...XXXXXXXXXX.....XXXXX..                       ",
"                      ...XXXXX..........XXXXX..XXXXX...                         ",
"                      ...XXXXX..........XXXXX..XXXXX...                         ",
"                      ...XXXXX..........XXXXX..XXXXX...                         ",
"                         .....       ..........XXX.....                         ",
"                         .....       ..........XXX.....                         ",
"                                             .......                            ",
"                                             .......                            ",
"                                             .......                            ",
"                                                                                ",
"                                                                                ",
"                                                                                ",
"                                                                                ",
"                                                                                ",
"                                                                                ",
"                                                                                ",
"                                                                                ",
"                                                                                ",
"                                                                                "
};
