/* XPM */
static char *_[] = {
/* columns rows colors chars-per-pixel */
"80 80 3 1 ",
"  c None",
". c black",
"X c white",
/* pixels */
"                                                                                ",
"                                                                                ",
"                                                                                ",
"                                                                                ",
"                                                                                ",
"                                                                                ",
"                                                                                ",
"                                     ..................                         ",
"                                     ..................                         ",
"                                     ..................                         ",
"                                ........XXXXXXXXXXXXXXX..     .............     ",
"                                ........XXXXXXXXXXXXXXX..     .............     ",
"                              ..XXXXX...XXXXXXX........     ..XXXXXXXXXXXXX..   ",
"                              ..XXXXX...XXXXXXX........     ..XXXXXXXXXXXXX..   ",
"                              ..XXXXX...XXXXXXX........     ..XXXXXXXXXXXXX..   ",
"                                ...XXXXX..XXXXX...       ...XXXXXXX........     ",
"                                ...XXXXX..XXXXX...       ...XXXXXXX........     ",
"                                .....XXXXX...XXXXX.......XXXXXXXX..             ",
"                                .....XXXXX...XXXXX.......XXXXXXXX..             ",
"                                .....XXXXX...XXXXX.......XXXXXXXX..             ",
"                              ..XXXXX...XXXXX.......XXXXXXXXXXXXX..             ",
"                              ..XXXXX...XXXXX.......XXXXXXXXXXXXX..             ",
"                           ...XXXXXXXXXXXXXXXXXXXXXXXXXXXXXXXXXXX..             ",
"                           ...XXXXXXXXXXXXXXXXXXXXXXXXXXXXXXXXXXX..             ",
"                           ...XXXXXXXXXXXXXXXXXXXXXXXXXXXXXXXXXXX..             ",
"               .....     .....XXXXXXXXXXXXXXXXXXXXXXXXXXXXXXXXXXX..             ",
"               .....     .....XXXXXXXXXXXXXXXXXXXXXXXXXXXXXXXXXXX..             ",
"  .....        ..XXX.......XXXXXXXXXXXXXXXXXXXXXXXXXXXXXXXXXXXXXX..             ",
"  .....        ..XXX.......XXXXXXXXXXXXXXXXXXXXXXXXXXXXXXXXXXXXXX..             ",
"  .....        ..XXX.......XXXXXXXXXXXXXXXXXXXXXXXXXXXXXXXXXXXXXX..             ",
"  ...XX.....   ..XXXXXXXX..XXXXXXXXXXXXXXXXXXXXXXXXXXXXXXXXXXXXXX..             ",
"  ...XX.....   ..XXXXXXXX..XXXXXXXXXXXXXXXXXXXXXXXXXXXXXXXXXXXXXX..             ",
"  ...XXXXX.......XXXXXXXXXX...XXXXXXXXXXXXXXXXXXXXXXXXXXXXXXXX...               ",
"  ...XXXXX.......XXXXXXXXXX...XXXXXXXXXXXXXXXXXXXXXXXXXXXXXXXX...               ",
"  ...XXXXX.......XXXXXXXXXX...XXXXXXXXXXXXXXXXXXXXXXXXXXXXXXXX...               ",
"  ...XXXXXXX...XXXXXXXXXXXXXXX.....XXXXXXXXXXXXXXXXXXXXXXXXX..                  ",
"  ...XXXXXXX...XXXXXXXXXXXXXXX.....XXXXXXXXXXXXXXXXXXXXXXXXX..                  ",
"     ..XXXXXXXXXXXXXXXXXXXXXXXXXXXX..XXXXXXXXXXXXXXXXXXXX...                    ",
"     ..XXXXXXXXXXXXXXXXXXXXXXXXXXXX..XXXXXXXXXXXXXXXXXXXX...                    ",
"     ..XXXXXXXXXXXXXXXXXXXXXXXXXXXX..XXXXXXXXXXXXXXXXXXXX...                    ",
"     ..XXXXXXXXXXXXXXXXXXXXXXXXXXXX..XXXXXXXXXXXXXXX.....                       ",
"     ..XXXXXXXXXXXXXXXXXXXXXXXXXXXX..XXXXXXXXXXXXXXX.....                       ",
"     ..XXXXXXXXXXXXXXXXXXXXXXXXXXXX..XXXXXXXXXXXXX..                            ",
"     ..XXXXXXXXXXXXXXXXXXXXXXXXXXXX..XXXXXXXXXXXXX..                            ",
"     ..XXXXXXXXXXXXXXXXXXXXXXXXXXXX..XXXXXXXXXXXXX..                            ",
"     ..XXXXXXXXXXXXXXXXXXXXXXXXXXXXXXXXXXXXXXXX...                              ",
"     ..XXXXXXXXXXXXXXXXXXXXXXXXXXXXXXXXXXXXXXXX...                              ",
"..   ..XXX..XXXXXXXX..XXXXXXXX.......XXXXXXXXXX...                              ",
"..   ..XXX..XXXXXXXX..XXXXXXXX.......XXXXXXXXXX...                              ",
"..   ..XXX..XXXXXXXX..XXXXXXXX.......XXXXXXXXXX...                              ",
"  .....XXX..XXXXXXXX..XXXXX...XXXXXXXXXXXXXXX..                                 ",
"  .....XXX..XXXXXXXX..XXXXX...XXXXXXXXXXXXXXX..                                 ",
"     ..XXX..XXXXXXXX..XXXXXXXXXXXXXXX...XXXXX..                                 ",
"     ..XXX..XXXXXXXX..XXXXXXXXXXXXXXX...XXXXX..                                 ",
"     ..XXX..XXXXXXXX..XXXXXXXXXXXXXXX...XXXXX..                                 ",
"     ..XXXXXXXXXXXXXXXXXXXXXXXXXXXX..XXXXX...                                   ",
"     ..XXXXXXXXXXXXXXXXXXXXXXXXXXXX..XXXXX...                                   ",
"     .....XX...XXXXXXXXXXXXXXX.....XXXXX..                                      ",
"     .....XX...XXXXXXXXXXXXXXX.....XXXXX..                                      ",
"     .....XX...XXXXXXXXXXXXXXX.....XXXXX..                                      ",
"       .....XXXXXXXX..........XXXXXXX...                                        ",
"       .....XXXXXXXX..........XXXXXXX...                                        ",
"       ...XX.............XXXXXXXXXX..                                           ",
"       ...XX.............XXXXXXXXXX..                                           ",
"       ...XX.............XXXXXXXXXX..                                           ",
"     .....XXXXX..     ...XXXXXXX...                                             ",
"     .....XXXXX..     ...XXXXXXX...                                             ",
"     ..XXXXX...       ...XXXXXXX...                                             ",
"     ..XXXXX...       ...XXXXXXX...                                             ",
"     ..XXXXX...       ...XXXXXXX...                                             ",
"     ..XXXXX...       ...XXXXX..                                                ",
"     ..XXXXX...       ...XXXXX..                                                ",
"       .....          ........                                                  ",
"       .....          ........                                                  ",
"       .....          ........                                                  ",
"                                                                                ",
"                                                                                ",
"                                                                                ",
"                                                                                ",
"                                                                                "
};
